Niegil-Francis/ur5-ag95-resources/cobot-control/scripts/e_waste_setup/Graph_data.csv
,upper_arm_link_x,upper_arm_link_y,upper_arm_link_z,shoulder_link_x,shoulder_link_y,shoulder_link_z,forearm_link_x,forearm_link_y,forearm_link_z,wrist_1_link_x,wrist_1_link_y,wrist_1_link_z,wrist_2_link_x,wrist_2_link_y,wrist_2_link_z,wrist_3_link_x,wrist_3_link_y,wrist_3_link_z,distance
0,0.0,0.0,0.089159,0.0,0.0,0.089159,-1.5626421535181677e-06,8.633463525483272e-10,0.5141589999971274,4.997085746214898e-05,0.10914998881137727,0.90640899996557,4.89759623923157e-05,0.10914998930554998,1.001058999960341,8.54368739854428e-05,0.19144998122901194,1.00105899989702,2.9740961738000933
1,0.0,0.0,0.089159,0.0,0.0,0.089159,-1.5626421535181677e-06,8.633463525483272e-10,0.5141589999971274,4.997085746214898e-05,0.10914998881137727,0.90640899996557,4.89759623923157e-05,0.10914998930554998,1.001058999960341,8.54368739854428e-05,0.19144998122901194,1.00105899989702,2.9600162138237684
2,0.0,0.0,0.089159,0.0,0.0,0.089159,-1.5626421535181677e-06,8.633463525483272e-10,0.5141589999971274,4.997085746214898e-05,0.10914998881137727,0.90640899996557,4.89759623923157e-05,0.10914998930554998,1.001058999960341,8.543687398533182e-05,0.19144998122901202,1.0010589998970203,2.922537327475758
3,0.0,0.0,0.089159,0.0,0.0,0.089159,-1.5626421535181677e-06,8.633463525469393e-10,0.5141589999971274,4.9970857462052036e-05,0.10914998881137727,0.90640899996557,4.897596239238528e-05,0.10914998930554995,1.0010589999603408,8.543687398527276e-05,0.19144998122901194,1.00105899989702,2.8584644781821167
4,0.0,0.0,0.089159,0.0,0.0,0.089159,-1.5626421535181677e-06,8.633463525483272e-10,0.5141589999971274,4.997085746148286e-05,0.1091499888113773,0.90640899996557,4.897596239142747e-05,0.10914998930554987,1.001058999960341,8.543687398444364e-05,0.19144998122901202,1.0010589998970203,2.7703463053820956
5,0.0,0.0,0.089159,0.0,0.0,0.089159,-1.5626421535181677e-06,8.633463525483272e-10,0.5141589999971274,4.99708574617604e-05,0.10914998881137727,0.90640899996557,4.897596239187161e-05,0.10914998930554998,1.001058999960341,8.543687398510976e-05,0.191449981229012,1.00105899989702,2.664479477730567
6,0.0,0.0,0.089159,0.0,0.0,0.089159,-1.562642153157352e-06,8.633463384913174e-10,0.5141589999971274,4.997085746248206e-05,0.1091499888113773,0.9064089999655699,4.897596239270425e-05,0.10914998930554992,1.0010589999603412,8.543687398583142e-05,0.19144998122901202,1.0010589998970203,2.5488309203608788
7,0.0,0.0,0.089159,0.0,0.0,0.089159,-1.5626421535181677e-06,8.633463525483272e-10,0.5141589999971274,4.997085746148286e-05,0.1091499888113773,0.90640899996557,4.897596239142747e-05,0.10914998930554987,1.001058999960341,8.543687398449908e-05,0.19144998122901188,1.0010589998970203,2.4310223912947238
8,0.0,0.0,0.089159,0.0,0.0,0.089159,-1.5626421535181677e-06,8.633463525483272e-10,0.5141589999971274,4.997085746214898e-05,0.10914998881137727,0.90640899996557,4.89759623923157e-05,0.10914998930554998,1.001058999960341,8.54368739854428e-05,0.19144998122901194,1.00105899989702,2.316549769899358
9,0.0,0.0,0.089159,0.0,0.0,0.089159,-1.5626421535181677e-06,8.633463525483272e-10,0.5141589999971274,4.997085746148286e-05,0.1091499888113773,0.90640899996557,4.89759623915385e-05,0.1091499893055499,1.001058999960341,8.543687398466567e-05,0.191449981229012,1.00105899989702,2.207366623296229
10,0.0,0.0,0.089159,0.0,0.0,0.089159,-1.5626421535181677e-06,8.633463525483272e-10,0.5141589999971274,4.99708574617604e-05,0.10914998881137727,0.90640899996557,4.897596239187161e-05,0.10914998930554998,1.001058999960341,8.543687398494317e-05,0.19144998122901188,1.0010589998970203,2.1008439392410203
11,0.0,0.0,0.089159,0.0,0.0,0.089159,-1.5626421535181677e-06,8.633463525483272e-10,0.5141589999971274,4.99708574617604e-05,0.10914998881137727,0.90640899996557,4.897596239203813e-05,0.10914998930554995,1.0010589999603408,8.543687398516526e-05,0.19144998122901197,1.0010589998970203,1.9844361097855725
12,0.0,0.0,0.089159,0.0,0.0,0.089159,-1.5626421535181677e-06,8.633463525469393e-10,0.5141589999971274,4.997085746166346e-05,0.10914998881137727,0.90640899996557,4.897596239177467e-05,0.10914998930554998,1.001058999960341,8.543687398477313e-05,0.19144998122901188,1.0010589998970203,1.8397145294385877
13,0.0,0.0,0.089159,0.0,0.0,0.089159,-1.5626421535181677e-06,8.633463525469393e-10,0.5141589999971274,4.997085746166346e-05,0.10914998881137727,0.90640899996557,4.897596239194119e-05,0.10914998930554995,1.0010589999603408,8.543687398482867e-05,0.19144998122901194,1.00105899989702,1.6971527639133686
14,0.0,0.0,0.089159,0.0,0.0,0.089159,-1.5626421535181677e-06,8.633463525469393e-10,0.5141589999971274,4.9970857462052036e-05,0.10914998881137727,0.90640899996557,4.897596239238528e-05,0.10914998930554995,1.0010589999603408,8.543687398538381e-05,0.19144998122901197,1.00105899989702,1.5818968402513438
15,0.0,0.0,0.089159,0.0,0.0,0.089159,-1.5626421535181677e-06,8.633463525483272e-10,0.5141589999971274,4.99708574617604e-05,0.10914998881137727,0.90640899996557,4.897596239187161e-05,0.10914998930554998,1.001058999960341,8.543687398510976e-05,0.191449981229012,1.00105899989702,1.4827971956057378
16,0.0,0.0,0.089159,0.0,0.0,0.089159,-1.5626421535181677e-06,8.633463525483272e-10,0.5141589999971274,4.99708574617604e-05,0.10914998881137727,0.90640899996557,4.897596239203813e-05,0.10914998930554995,1.0010589999603408,8.543687398499871e-05,0.19144998122901194,1.00105899989702,1.3953929486811103
17,0.0,0.0,0.089159,0.0,0.0,0.089159,-1.5626421535181677e-06,8.633463525483272e-10,0.5141589999971274,4.99708574617604e-05,0.10914998881137727,0.90640899996557,4.897596239187161e-05,0.10914998930554998,1.001058999960341,8.543687398516526e-05,0.19144998122901197,1.0010589998970203,1.3161620552242939
18,0.0,0.0,0.089159,0.0,0.0,0.089159,-1.5626421535181677e-06,8.633463525483272e-10,0.5141589999971274,4.997085746214898e-05,0.10914998881137727,0.90640899996557,4.897596239248222e-05,0.10914998930554995,1.0010589999603408,8.543687398555384e-05,0.19144998122901197,1.00105899989702,1.2447740742207782
19,0.0,0.0,0.089159,0.0,0.0,0.089159,-1.5626421535181677e-06,8.633463525483272e-10,0.5141589999971274,4.997085746214898e-05,0.10914998881137727,0.90640899996557,4.89759623923157e-05,0.10914998930554998,1.001058999960341,8.543687398533182e-05,0.19144998122901202,1.0010589998970203,1.1810017501184438
20,0.0,0.0,0.089159,0.0,0.0,0.089159,-1.5626421535181677e-06,8.633463525483272e-10,0.5141589999971274,4.997085746148286e-05,0.1091499888113773,0.90640899996557,4.89759623915385e-05,0.1091499893055499,1.001058999960341,8.543687398472117e-05,0.19144998122901197,1.00105899989702,1.1250425667363286
21,0.0,0.0,0.089159,0.0,0.0,0.089159,-1.5626421535181677e-06,8.633463525483272e-10,0.5141589999971274,4.997085746214898e-05,0.10914998881137727,0.90640899996557,4.8975962392315645e-05,0.10914998930554987,1.001058999960341,8.543687398533179e-05,0.19144998122901197,1.0010589998970203,1.0775800348128883
22,0.0,0.0,0.089159,0.0,0.0,0.089159,-1.5626421535181677e-06,8.633463525483272e-10,0.5141589999971274,4.99708574617604e-05,0.10914998881137727,0.90640899996557,4.897596239187161e-05,0.10914998930554998,1.001058999960341,8.543687398494317e-05,0.19144998122901188,1.0010589998970203,1.025638319436497
23,0.0,0.0,0.089159,0.0,0.0,0.089159,-1.5626421535181677e-06,8.633463525483272e-10,0.5141589999971274,4.99708574617604e-05,0.10914998881137727,0.90640899996557,4.897596239187161e-05,0.10914998930554998,1.001058999960341,8.543687398510976e-05,0.191449981229012,1.00105899989702,0.9650536428394809
24,0.0,0.0,0.089159,0.0,0.0,0.089159,-1.5626421535181677e-06,8.633463525483272e-10,0.5141589999971274,4.99708574617604e-05,0.10914998881137727,0.90640899996557,4.897596239203813e-05,0.10914998930554995,1.0010589999603408,8.543687398499871e-05,0.19144998122901194,1.00105899989702,0.9043042633452617
25,0.0,0.0,0.089159,0.0,0.0,0.089159,-1.5626421535181677e-06,8.633463525483272e-10,0.5141589999971274,4.997085746214898e-05,0.10914998881137727,0.90640899996557,4.89759623923157e-05,0.10914998930554998,1.001058999960341,8.54368739854428e-05,0.19144998122901194,1.00105899989702,0.8435515745128971
26,0.0,0.0,0.089159,0.0,0.0,0.089159,-1.5626421535181677e-06,8.633463525483272e-10,0.5141589999971274,4.997085746214898e-05,0.10914998881137727,0.90640899996557,4.897596239248222e-05,0.10914998930554995,1.0010589999603408,8.54368739854428e-05,0.19144998122901194,1.00105899989702,0.7880510167507697
27,0.0,0.0,0.089159,0.0,0.0,0.089159,-1.5626421535181677e-06,8.633463525469393e-10,0.5141589999971274,4.997085746166346e-05,0.10914998881137727,0.90640899996557,4.897596239177467e-05,0.10914998930554998,1.001058999960341,8.543687398499523e-05,0.19144998122901197,1.0010589998970203,0.7358923491172139
28,0.0,0.0,0.089159,0.0,0.0,0.089159,-1.5626421535181677e-06,8.633463525483272e-10,0.5141589999971274,4.99708574617604e-05,0.10914998881137727,0.90640899996557,4.897596239187161e-05,0.10914998930554998,1.001058999960341,8.543687398494317e-05,0.19144998122901188,1.0010589998970203,0.7005697497221823
29,0.0,0.0,0.089159,0.0,0.0,0.089159,-1.5626421535181677e-06,8.633463525483272e-10,0.5141589999971274,4.99708574617604e-05,0.10914998881137727,0.90640899996557,4.897596239203813e-05,0.10914998930554995,1.0010589999603408,8.543687398499871e-05,0.19144998122901194,1.00105899989702,0.6802671112038786
30,0.0,0.0,0.089159,0.0,0.0,0.089159,-4.288678897364005e-05,2.3741324184382335e-08,0.5141589978361443,2.012297607765104e-05,0.1091500056708613,0.9064089978037044,3.0106390100236476e-05,0.10915000016452167,1.0010589972771933,7.096230734195392e-05,0.19144999002353696,1.0010589977388147,0.665582549244262
31,0.0,0.0,0.089159,0.0,0.0,0.089159,-4.288682781052698e-05,2.3741344178927218e-08,0.5141589978361405,2.012289686252169e-05,0.10915000567090372,0.9064089978037014,3.010630173762042e-05,0.10915000016456955,1.001058997277191,7.096221614315444e-05,0.1914499900235862,1.0010589977388118,0.6389491564682028
32,0.0,0.0,0.089159,0.0,0.0,0.089159,-4.288682797063501e-05,2.374134424482439e-08,0.5141589978361405,2.0122896529055487e-05,0.10915000567090387,0.9064089978037012,3.010630136662863e-05,0.1091500001645696,1.0010589972771908,7.096221575506731e-05,0.19144999002358637,1.0010589977388118,0.5966448006557244
33,0.0,0.0,0.089159,0.0,0.0,0.089159,-4.288682796874763e-05,2.374134424385959e-08,0.5141589978361405,2.01228965328576e-05,0.10915000567090385,0.9064089978037012,3.0106301370819365e-05,0.10915000016456969,1.0010589972771908,7.096221575951522e-05,0.19144999002358637,1.001058997738812,0.5421408797721411
34,0.0,0.0,0.089159,0.0,0.0,0.089159,-4.288682796874763e-05,2.374134424385959e-08,0.5141589978361405,2.0122896532580032e-05,0.10915000567090383,0.9064089978037012,3.0106301370375276e-05,0.10915000016456969,1.0010589972771908,7.096221575907113e-05,0.19144999002358637,1.001058997738812,0.47758805012439404
35,0.0,0.0,0.089159,0.0,0.0,0.089159,-4.2886827969122316e-05,2.3741344257944036e-08,0.5141589978361405,2.0122896531830597e-05,0.10915000567090377,0.9064089978037013,3.010630136959809e-05,0.10915000016456963,1.0010589972771908,7.096221575818298e-05,0.19144999002358642,1.001058997738812,0.40433965514638354
36,0.0,0.0,0.089159,0.0,0.0,0.089159,-4.288682796874763e-05,2.374134424385959e-08,0.5141589978361405,2.01228965328576e-05,0.10915000567090385,0.9064089978037012,3.0106301370819365e-05,0.10915000016456969,1.0010589972771908,7.096221575951522e-05,0.19144999002358637,1.001058997738812,0.3036958648637151
37,0.0,0.0,0.089159,0.0,0.0,0.089159,-4.2886827969122316e-05,2.3741344257944036e-08,0.5141589978361405,2.0122896531497547e-05,0.1091500056709038,0.9064089978037013,3.0106301369154e-05,0.10915000016456963,1.0010589972771908,7.09622157577389e-05,0.19144999002358642,1.001058997738812,0.2138870439189209
38,0.0,0.0,0.089159,0.0,0.0,0.089159,-4.2886827969122316e-05,2.3741344257944036e-08,0.5141589978361405,2.012289653216368e-05,0.1091500056709038,0.9064089978037012,3.010630137004218e-05,0.10915000016456963,1.0010589972771908,7.096221575862707e-05,0.19144999002358642,1.001058997738812,0.15371021039759686
39,0.0,0.0,0.089159,0.0,0.0,0.089159,-4.2886827969122316e-05,2.3741344257944036e-08,0.5141589978361405,2.0122896531830597e-05,0.10915000567090377,0.9064089978037013,3.010630136959809e-05,0.10915000016456963,1.0010589972771908,7.096221575818298e-05,0.19144999002358642,1.001058997738812,0.10104345607176286
40,0.0,0.0,0.089159,0.0,0.0,0.089159,-4.2886827969122316e-05,2.3741344257944036e-08,0.5141589978361405,2.012289653216368e-05,0.1091500056709038,0.9064089978037012,3.010630137004218e-05,0.10915000016456963,1.0010589972771908,7.096221575862707e-05,0.19144999002358642,1.001058997738812,0.0556137819476177
41,0.0,0.0,0.089159,0.0,0.0,0.089159,-4.2886827969122316e-05,2.3741344257944036e-08,0.5141589978361405,2.0122896531830597e-05,0.10915000567090377,0.9064089978037013,3.010630136959809e-05,0.10915000016456963,1.0010589972771908,7.096221575818298e-05,0.19144999002358642,1.001058997738812,0.02150547930718625
42,0.0,0.0,0.089159,0.0,0.0,0.089159,-4.2886827969122316e-05,2.3741344257944036e-08,0.5141589978361405,2.0122896531497547e-05,0.1091500056709038,0.9064089978037013,3.0106301369154e-05,0.10915000016456963,1.0010589972771908,7.09622157577389e-05,0.19144999002358642,1.001058997738812,0.003067097568096968
43,0.0,0.0,0.089159,0.0,0.0,0.089159,-4.288682796949703e-05,2.3741344244272918e-08,0.5141589978361405,2.0122896531081244e-05,0.10915000567090385,0.9064089978037011,3.010630136876541e-05,0.1091500001645696,1.0010589972771908,7.096221575740587e-05,0.19144999002358648,1.001058997738812,1.9585761320295536e-05
44,0.0,0.0,0.089159,0.0,0.0,0.089159,-4.288682796874763e-05,2.374134424385959e-08,0.5141589978361405,2.01228965328576e-05,0.10915000567090385,0.9064089978037012,3.0106301370819365e-05,0.10915000016456969,1.0010589972771908,7.096221575951522e-05,0.19144999002358637,1.001058997738812,1.9585768473940715e-05
45,0.0,0.0,0.089159,0.0,0.0,0.089159,-4.288682796874763e-05,2.374134424385959e-08,0.5141589978361405,2.0122896533246193e-05,0.10915000567090388,0.9064089978037012,3.0106301371152476e-05,0.10915000016456977,1.0010589972771908,7.096221575973728e-05,0.1914499900235864,1.001058997738812,1.9585768472819203e-05
46,0.0,0.0,0.089159,0.0,0.0,0.089159,-4.2886827969122316e-05,2.3741344257944036e-08,0.5141589978361405,2.0122896531830597e-05,0.10915000567090377,0.9064089978037013,3.010630136959809e-05,0.10915000016456963,1.0010589972771908,7.096221575818298e-05,0.19144999002358642,1.001058997738812,1.95857684729805e-05
47,0.0,0.0,0.089159,0.0,0.0,0.089159,-4.288682796874763e-05,2.374134424385959e-08,0.5141589978361405,2.0122896532580032e-05,0.10915000567090383,0.9064089978037012,3.0106301370375276e-05,0.10915000016456969,1.0010589972771908,7.096221575907113e-05,0.19144999002358637,1.001058997738812,1.9585768472819203e-05
48,0.0,0.0,0.089159,0.0,0.0,0.089159,-4.288682796874763e-05,2.374134424385959e-08,0.5141589978361405,2.0122896532580032e-05,0.10915000567090383,0.9064089978037012,3.0106301370319782e-05,0.10915000016456972,1.0010589972771908,7.09622157588491e-05,0.1914499900235864,1.001058997738812,1.9585768472814784e-05
49,0.0,0.0,0.089159,0.0,0.0,0.089159,-4.2886827969122316e-05,2.3741344257944036e-08,0.5141589978361405,2.012289653216368e-05,0.1091500056709038,0.9064089978037012,3.010630137004218e-05,0.10915000016456963,1.0010589972771908,7.096221575862707e-05,0.19144999002358642,1.001058997738812,1.958576847367666e-05
50,0.0,0.0,0.089159,0.0,0.0,0.089159,-6.260904421722127e-05,2.9732266771817755e-08,0.5141589953883606,1.2317374251508814e-05,0.10915000657100217,0.906408994677252,2.7071698600100612e-05,0.10914999958489681,1.0010589935272778,6.218990363686864e-05,0.19144999209225771,1.0010589941106198,1.958576847298199e-05
51,0.0,0.0,0.089159,0.0,0.0,0.089159,-0.0009065294237088353,-3.2910045086140377e-06,0.51415803316781,-0.00040162572291682023,0.10914926139087763,0.9064069979565338,-0.00018239977221369907,0.10915005727536084,1.001056744070029,-0.00014480627294018782,0.19145004868557777,1.0010559649411095,1.9585768473681076e-05
52,0.0,0.0,0.089159,0.0,0.0,0.089159,-0.006570946627910402,-0.00018468570983090046,0.5141081599610497,-0.0027955749664910407,0.10911453071178409,0.9062984363046112,-0.0011994185753755136,0.10915939295644109,1.000934966102328,-0.0009048601629994201,0.1914588540781739,1.000890984127724,1.958576847279028e-05
53,0.0,0.0,0.089159,0.0,0.0,0.089159,-0.013257750435273377,-0.000763469123536379,0.5139514777680196,-0.005610623350358538,0.10900773618664987,0.9059535044618825,-0.002382734849543845,0.10919361941760755,1.0005482647990747,-0.001777074650777396,0.19149118870817045,1.000365878975516,1.95857684727947e-05
54,0.0,0.0,0.089159,0.0,0.0,0.089159,-0.02309015979721531,-0.002361843559342448,0.513524722243845,-0.009747858077599226,0.10872243449321849,0.9050040335163109,-0.004109908009431308,0.10929912849039364,0.9994842083841763,-0.0030369743457134626,0.19159018569760414,0.9989178895050291,1.9585768473699673e-05
55,0.0,0.0,0.089159,0.0,0.0,0.089159,-0.03479416043328806,-0.005512850843489726,0.5126964539226962,-0.01470157880147999,0.10818220372403016,0.9031366000786185,-0.006176936913620721,0.10953286370213057,0.9973922561333471,-0.0045367212130260366,0.19180581175479036,0.9960649614487022,1.9585768472819945e-05
56,0.0,0.0,0.089159,0.0,0.0,0.089159,-0.04725434048928705,-0.010568526145075023,0.5113915586214822,-0.02006426004269996,0.10735913252514645,0.9001428310899695,-0.008439453163163881,0.10995904345798013,0.9940402582546944,-0.00618294112177554,0.19218838130084298,0.9914840596451581,1.9585768473679588e-05
57,0.0,0.0,0.089159,0.0,0.0,0.089159,-0.06477158986752762,-0.021561520728032697,0.5086405156475042,-0.02794522779201364,0.1057361928367963,0.8936247960765237,-0.011885366705803261,0.11108228716368856,0.9867490283543773,-0.0087178597442445,0.19315306468623694,0.981491236375529,1.9585768473704833e-05
58,0.0,0.0,0.089159,0.0,0.0,0.089159,-0.0749923711521737,-0.031261322956540764,0.5063206880251369,-0.03294650405792471,0.10451987210310364,0.8878562658268244,-0.01421479922563926,0.11232837138098531,0.9803050250023992,-0.010437367874997338,0.19418222928983428,0.9726260304178754,1.95857684727407e-05
59,0.0,0.0,0.089159,0.0,0.0,0.089159,-0.08104114520943746,-0.0391925825152335,0.5045158035544013,-0.03624317373894051,0.10371639498528161,0.8831237153865308,-0.015861418482662246,0.11357328464917509,0.975026099897636,-0.011633879467112983,0.19519126308821827,0.9653346856873221,1.9585768472907162e-05
60,0.0,0.0,0.089159,0.0,0.0,0.089159,-0.0866167059535879,-0.049807295271772564,0.5022471014837635,-0.039898992150100406,0.10296602406848057,0.8767488412857788,-0.01788492465482515,0.11562479641359678,0.9679286571170688,-0.013064236359711493,0.1968364248181561,0.9554899121546088,1.9585768473621173e-05
61,0.0,0.0,0.089159,0.0,0.0,0.089159,-0.09048756464614141,-0.06430440007604618,0.4994052001960167,-0.04419421303877982,0.10249781992731022,0.8679262036665233,-0.02088175919866092,0.11906466385395811,0.9581519853381854,-0.015197805718156505,0.19954478554395869,0.9419059801186199,1.9585768472796187e-05
62,0.0,0.0,0.089159,0.0,0.0,0.089159,-0.09010462908285671,-0.07924572486533304,0.496867561240022,-0.04852885148823027,0.10267749938443109,0.8587365709603522,-0.025118775456352146,0.12326632446099667,0.9481048602029478,-0.018294123427301016,0.20278017416607577,0.9279985967569353,1.9585768473698928e-05
63,0.0,0.0,0.089159,0.0,0.0,0.089159,-0.08764858269006107,-0.09130985503105027,0.4948747087501445,-0.05210854250698798,0.10333316314723644,0.8507184750552922,-0.029049690569232917,0.12735523362016177,0.9393178654454437,-0.021214316585901796,0.20588872337699723,0.9159857437855017,1.95857684736241e-05
64,0.0,0.0,0.089159,0.0,0.0,0.089159,-0.08383260466634115,-0.10404642887474076,0.4926084206629505,-0.05575936725105038,0.10476541922493454,0.8410094689309242,-0.03304441384606144,0.13295743110444558,0.9284615349899642,-0.02419913230850352,0.2101353966707522,0.9012841063851948,1.9585768472819203e-05
65,0.0,0.0,0.089159,0.0,0.0,0.089159,-0.07945863658210242,-0.11497583284318458,0.490521533047779,-0.058793918072818516,0.1069112938906417,0.8312749004540879,-0.03635305670882465,0.13938299034845542,0.9173017519040485,-0.026671394976920143,0.21497942410301926,0.8862415743498101,1.9585768473649346e-05
66,0.0,0.0,0.089159,0.0,0.0,0.089159,-0.07236979099564511,-0.12798584253343426,0.48791611587663686,-0.06246203350272422,0.11129017742463575,0.8171919996192623,-0.04049449281377877,0.15013973285508164,0.900659129071138,-0.0297545738319223,0.22299752178404803,0.8639210462054612,1.9585768472819203e-05
67,0.0,0.0,0.089159,0.0,0.0,0.089159,-0.06667505116434908,-0.13636689301887162,0.48612689295938166,-0.06472101726049927,0.11612345833300021,0.8055303826486945,-0.0432279652323255,0.16008204072553736,0.8865508383901474,-0.031831626431788995,0.23041842428006007,0.8453658094304096,1.9585768473648604e-05
68,0.0,0.0,0.089159,0.0,0.0,0.089159,-0.06246045331204382,-0.14185659171866988,0.4848866830827185,-0.06607830382099912,0.12078789249509678,0.7959792273035328,-0.04492397510210395,0.16883238812055223,0.8747373590522514,-0.0331425167519329,0.2369226340660504,0.8300360654890361,1.9585768473644186e-05
69,0.0,0.0,0.089159,0.0,0.0,0.089159,-0.057856051851301715,-0.14726025934928277,0.4836106361742736,-0.06718060645461574,0.12749662357969446,0.7839362810409785,-0.046331838477383196,0.1805627227204379,0.859487194310219,-0.03425425301784492,0.24557571534417927,0.8104899217374225,1.9585768473680334e-05
70,0.0,0.0,0.089159,0.0,0.0,0.089159,-0.05173322892490408,-0.15284843454882668,0.4823332986017481,-0.0679932927065029,0.13957036213896679,0.7651771471639562,-0.04761976227051418,0.19976498564115994,0.8353209213638312,-0.035375354831578734,0.2597337131863494,0.7803016865174598,1.9585768472814784e-05
71,0.0,0.0,0.089159,0.0,0.0,0.089159,-0.048762072753646614,-0.1550153285420945,0.48186437070143884,-0.06783430456896009,0.14810558024251383,0.7530243781346443,-0.04756826660780836,0.21253160563239876,0.8193357456203105,-0.03547354488821167,0.26904029132533497,0.7607373143462357,1.9585768472796187e-05
72,0.0,0.0,0.089159,0.0,0.0,0.089159,-0.046190288160875226,-0.1558124217571617,0.4818598358862808,-0.06689121591021843,0.15838840024897238,0.7399743454377317,-0.0465784173280203,0.22690900209939577,0.80203028661837,-0.0348591603886379,0.27965611823179753,0.7399521845492534,1.9585768473755906e-05
73,0.0,0.0,0.089159,0.0,0.0,0.089159,-0.04325992405452963,-0.155158104870531,0.4824522003782695,-0.06486160409418597,0.1737782834445439,0.7214250123500472,-0.04435071490281532,0.24734361603763255,0.7773362613527977,-0.0334031738885754,0.29474367672375384,0.7109534654438157,1.9585768473704833e-05
74,0.0,0.0,0.089159,0.0,0.0,0.089159,-0.040570439770280006,-0.15234679488655567,0.4838354415374192,-0.061594320369784315,0.19286177543517988,0.698690798512667,-0.04064531993162261,0.2715277474086854,0.7469756484565733,-0.03095891865062249,0.31239177474406166,0.6761971566659377,1.9585768472819945e-05
75,0.0,0.0,0.089159,0.0,0.0,0.089159,-0.03795282357041953,-0.14584020951679405,0.4865444759186981,-0.056484465552035804,0.216346035027467,0.671616049933699,-0.034812405033822116,0.29962463078409046,0.7110320337689373,-0.026985766341022274,0.3330005285290972,0.6362116944454135,1.9585768472791772e-05
76,0.0,0.0,0.089159,0.0,0.0,0.089159,-0.03435237648674173,-0.13168385677563232,0.4917807531311589,-0.04745708213803554,0.25049173797384894,0.6315801324848356,-0.024549361375395526,0.33830449895504583,0.658464660346044,-0.019935510989576452,0.3612566833394396,0.5795647261470723,1.9585768473699673e-05
77,0.0,0.0,0.089159,0.0,0.0,0.089159,-0.03180500880861518,-0.11994995111503153,0.4956383360580404,-0.040838949467297256,0.27185437031978893,0.6060083800970606,-0.017095200132115365,0.36140195054492896,0.6254013619031201,-0.014747115501070756,0.3782192590944272,0.5448721458898219,1.9585768472760042e-05
78,0.0,0.0,0.089159,0.0,0.0,0.089159,-0.02931635468309412,-0.1088611415786595,0.49893308800738734,-0.03512320264262565,0.2893253800873579,0.5837125635913579,-0.01074691315938801,0.37984245614524403,0.5967922406883,-0.010394264091884882,0.39151938212352855,0.5153255908349222,1.9585768472819945e-05
79,0.0,0.0,0.089159,0.0,0.0,0.089159,-0.02690427376835601,-0.09840253957181161,0.5017339631991928,-0.030164145188412088,0.3035437049682292,0.5665596890993511,-0.005292011684157001,0.3945136797993117,0.5745885840531241,-0.006641405631354798,0.4021142891114061,0.4926514137696676,1.958576847364493e-05
80,0.0,0.0,0.089159,0.0,0.0,0.089159,-0.024253188017931047,-0.0871830259760088,0.5044130220788156,-0.02506044042671539,0.31717623103713855,0.5520231534725003,0.00028939056389009623,0.4083013638844735,0.5555186838046929,-0.0027236412692774933,0.41229072136771727,0.47337066699331043,1.958576847370409e-05
81,0.0,0.0,0.089159,0.0,0.0,0.089159,-0.022281300721410026,-0.0791155640565597,0.5061353436481434,-0.02140564931333043,0.32663587920446113,0.5398812252666487,0.004252217738612585,0.41774082214248603,0.5403121900030495,7.65062039912126e-05,0.4193055686946745,0.45813308681125847,1.9585768472796187e-05
82,0.0,0.0,0.089159,0.0,0.0,0.089159,-0.02019407860372977,-0.07090270588342634,0.507716051652167,-0.017753231626854757,0.33614059014369824,0.5168583940987225,0.008161748930999965,0.42712975024218336,0.514028371615016,0.0027880349169968864,0.42610615484408826,0.43191037450015285,1.9585768472791772e-05
83,0.0,0.0,0.089159,0.0,0.0,0.089159,-0.019990364715689515,-0.07012257813901582,0.5078572318492297,-0.01743183578649192,0.3369849365896911,0.502315537060253,0.00850228460454652,0.42795713325104034,0.4991369628276889,0.003012873846241073,0.42665323862163684,0.41703059140426035,1.9585768472819203e-05
84,0.0,0.0,0.089159,0.0,0.0,0.089159,-0.020338068027031878,-0.07152185402942696,0.5076037244082797,-0.018176010765214648,0.33514101099171356,0.4877435954763162,0.007703338283551877,0.4261496077385103,0.4852302091170311,0.002474788956000281,0.4253682195370116,0.40310017986823604,1.9585768473704833e-05
85,0.0,0.0,0.089159,0.0,0.0,0.089159,-0.020143939291134897,-0.07093851906559517,0.5077123994875866,-0.018447316626839225,0.33461375870137117,0.4716810732621979,0.007400727261505393,0.42563974593949044,0.46949686299943727,0.0023093377678985137,0.4251145105886928,0.3873561795298516,1.9585768472902744e-05
86,0.0,0.0,0.089159,0.0,0.0,0.089159,-0.019109107832477556,-0.06730075933807782,0.5083611586184461,-0.018196011800365244,0.3355281997158249,0.44918531047762766,0.007649160994977696,0.42655284494489415,0.44691297597299384,0.0025463309750641226,0.42595119708475465,0.36477352658574586,1.9585768472819945e-05
87,0.0,0.0,0.089159,0.0,0.0,0.089159,-0.016567634791266626,-0.058355789335335494,0.5098074462451669,-0.01803328948256598,0.33613224471175385,0.40905612938038216,0.007808245667130783,0.4271532750067656,0.40660467978034576,0.002677104076979433,0.4263978813491919,0.32446826418772373,1.9585768472791027e-05
88,0.0,0.0,0.089159,0.0,0.0,0.089159,-0.015134912184685937,-0.053311755968161616,0.5105303221242673,-0.01809375743396001,0.3359331082376953,0.3911424419849717,0.007746118383270408,0.4269524114274571,0.3886106906938016,0.0026022852634388326,0.42612808869411656,0.3064757317976859,1.9585768472795445e-05
89,0.0,0.0,0.089159,0.0,0.0,0.089159,-0.013945289516859968,-0.049122869362048446,0.5110801687103765,-0.018066452368641392,0.33603853259241345,0.37914270071427436,0.007772305562875139,0.4270566456249364,0.3765573209442321,0.0026199960370139296,0.42618628938393777,0.2944233682415679,1.9585768473680334e-05
90,0.0,0.0,0.089159,0.0,0.0,0.089159,-0.012424200669667124,-0.04376617641950592,0.5117168789223278,-0.017940840596556915,0.336490861736258,0.3662935774300187,0.007896717794627747,0.42750767449997595,0.36365106523204516,0.002735377252326334,0.4265882770503713,0.28151821387440595,1.9585768472819203e-05
91,0.0,0.0,0.089159,0.0,0.0,0.089159,-0.010532912237365525,-0.03710511635753357,0.5124051081922595,-0.017752152792171613,0.33716628931198644,0.35227209328286163,0.008084089847172595,0.4281816490922058,0.34956740284620247,0.002912920195944909,0.42720887910579464,0.2674357845558525,1.9585768473625588e-05
92,0.0,0.0,0.089159,0.0,0.0,0.089159,-0.009749885524062113,-0.03434716910991615,0.5126565935072152,-0.017702121796705148,0.33734685691958294,0.34666232266557995,0.00813358910244524,0.4283616218255772,0.34393265025994124,0.0029584704859213183,0.4273674076952585,0.26180153748550006,3.9114897006243896
93,0.0,0.0,0.089159,0.0,0.0,0.089159,-0.009536252801426129,-0.033594715840410565,0.512721811103748,-0.017705664773137633,0.337335639448509,0.345038427212343,0.008129890228502575,0.42835022918875326,0.34230144855472927,0.0029536168456173705,0.4273497434276957,0.26017048470973636,3.9110274380614194
94,0.0,0.0,0.089159,0.0,0.0,0.089159,-0.009536252824157692,-0.033594715938217994,0.5127218110954787,-0.017705664836049448,0.3373356393891631,0.34503842729111145,0.00812989015315754,0.42835022913363546,0.3423014486567307,0.002953616775747233,0.427349743391311,0.26017048481116434,3.9096738534159283
95,0.0,0.0,0.089159,0.0,0.0,0.089159,-0.009536252824158374,-0.033594715938220235,0.5127218110954785,-0.017705664836049448,0.3373356393891621,0.345038427291114,0.008129890153157678,0.42835022913363446,0.34230144865673384,0.0029536167757475383,0.42734974339131054,0.26017048481116756,3.9078811644859397
96,0.0,0.0,0.089159,0.0,0.0,0.089159,-0.009536252824158374,-0.033594715938220235,0.5127218110954785,-0.01770566483604953,0.3373356393891618,0.3450384272911132,0.008129890153157512,0.4283502291336342,0.34230144865673306,0.0029536167757474273,0.42734974339131016,0.26017048481116667,3.9063365347410786
97,0.0,0.0,0.089159,0.0,0.0,0.089159,-0.009536252824158374,-0.033594715938220235,0.5127218110954785,-0.01770566483604953,0.3373356393891618,0.3450384272911132,0.008129890153157512,0.4283502291336342,0.3423014486567329,0.002953616775747455,0.42734974339131004,0.2601704848111666,3.90539810735661
98,0.0,0.0,0.089159,0.0,0.0,0.089159,-0.009536252824158374,-0.033594715938220235,0.5127218110954785,-0.017705664836049448,0.3373356393891621,0.345038427291114,0.008129890153157678,0.42835022913363446,0.34230144865673384,0.0029536167757475106,0.4273497433913106,0.26017048481116756,3.9053595288494374
99,0.0,0.0,0.089159,0.0,0.0,0.089159,-0.009536252824158518,-0.033594715938220526,0.5127218110954784,-0.01770566483604956,0.33733563938916183,0.34503842729111417,0.008129890153157512,0.4283502291336343,0.3423014486567342,0.0029536167757473718,0.4273497433913104,0.26017048481116795,3.907651102966202
100,0.0,0.0,0.089159,0.0,0.0,0.089159,-0.009536252824158518,-0.033594715938220526,0.5127218110954784,-0.01770566483604956,0.33733563938916183,0.34503842729111417,0.008129890153157512,0.4283502291336343,0.3423014486567342,0.0029536167757474273,0.42734974339131027,0.26017048481116795,3.911140028611826
101,0.0,0.0,0.089159,0.0,0.0,0.089159,-0.009536252824158374,-0.033594715938220235,0.5127218110954785,-0.01770566483604953,0.3373356393891618,0.3450384272911132,0.008129890153157512,0.4283502291336342,0.34230144865673306,0.002953616775747455,0.42734974339131004,0.26017048481116667,3.9202194443015106
102,0.0,0.0,0.089159,0.0,0.0,0.089159,-0.009536252824158374,-0.033594715938220235,0.5127218110954785,-0.017705664836049448,0.3373356393891621,0.345038427291114,0.008129890153157678,0.42835022913363446,0.34230144865673384,0.0029536167757475383,0.42734974339131054,0.26017048481116767,3.9329163215796585
103,0.0,0.0,0.089159,0.0,0.0,0.089159,-0.009536252824158518,-0.033594715938220526,0.5127218110954784,-0.017705664836049642,0.33733563938916156,0.34503842729111345,0.008129890153157373,0.42835022913363396,0.3423014486567334,0.0029536167757473718,0.42734974339131004,0.260170484811167,3.936653019528468
104,0.0,0.0,0.089159,0.0,0.0,0.089159,-0.009536252824158374,-0.033594715938220235,0.5127218110954785,-0.017705664836049365,0.33733563938916244,0.34503842729111445,0.008129890153157706,0.42835022913363474,0.34230144865673445,0.002953616775747677,0.42734974339131093,0.26017048481116817,3.922794080028951
105,0.0,0.0,0.089159,0.0,0.0,0.089159,-0.009536252824158374,-0.033594715938220235,0.5127218110954785,-0.01770566483604953,0.3373356393891618,0.3450384272911132,0.008129890153157512,0.4283502291336342,0.3423014486567329,0.002953616775747455,0.42734974339131004,0.2601704848111666,3.894706695769745
106,0.0,0.0,0.089159,0.0,0.0,0.089159,-0.009536252824158518,-0.033594715938220526,0.5127218110954784,-0.01770566483604956,0.33733563938916183,0.34503842729111417,0.008129890153157512,0.4283502291336343,0.3423014486567342,0.0029536167757474273,0.42734974339131027,0.2601704848111679,3.853352980919708
107,0.0,0.0,0.089159,0.0,0.0,0.089159,-0.009536252824158518,-0.033594715938220526,0.5127218110954784,-0.017705664836049476,0.3373356393891623,0.34503842729111467,0.00812989015315754,0.4283502291336345,0.34230144865673484,0.002953616775747594,0.4273497433913108,0.2601704848111686,3.80327786326611
108,0.0,0.0,0.089159,0.0,0.0,0.089159,-0.009536252824158374,-0.033594715938220235,0.5127218110954785,-0.01770566483604953,0.3373356393891618,0.3450384272911132,0.008129890153157512,0.4283502291336342,0.34230144865673306,0.002953616775747455,0.42734974339131004,0.26017048481116667,3.749695549360213
109,0.0,0.0,0.089159,0.0,0.0,0.089159,-0.009536252824158374,-0.033594715938220235,0.5127218110954785,-0.01770566483604953,0.3373356393891618,0.3450384272911132,0.008129890153157512,0.4283502291336342,0.3423014486567329,0.002953616775747455,0.42734974339131004,0.2601704848111666,3.6930882372756093
110,0.0,0.0,0.089159,0.0,0.0,0.089159,-0.009536252824158518,-0.033594715938220526,0.5127218110954784,-0.017705664836049642,0.33733563938916156,0.34503842729111345,0.0081298901531574,0.4283502291336341,0.34230144865673323,0.0029536167757474273,0.4273497433913098,0.26017048481116684,3.6323960577433216
111,0.0,0.0,0.089159,0.0,0.0,0.089159,-0.009536252824158518,-0.033594715938220526,0.5127218110954784,-0.01770566483604956,0.33733563938916183,0.34503842729111417,0.008129890153157512,0.4283502291336343,0.3423014486567342,0.0029536167757474273,0.42734974339131027,0.2601704848111679,3.566186984723804
112,0.0,0.0,0.089159,0.0,0.0,0.089159,-0.009536252824158374,-0.033594715938220235,0.5127218110954785,-0.017705664836049448,0.3373356393891621,0.345038427291114,0.008129890153157678,0.42835022913363446,0.34230144865673384,0.0029536167757475383,0.42734974339131054,0.26017048481116767,3.49115516785647
113,0.0,0.0,0.089159,0.0,0.0,0.089159,-0.009536252824158518,-0.033594715938220526,0.5127218110954784,-0.017705664836049642,0.33733563938916156,0.34503842729111345,0.0081298901531574,0.4283502291336341,0.34230144865673323,0.0029536167757474273,0.4273497433913098,0.26017048481116684,3.4065686550226504
114,0.0,0.0,0.089159,0.0,0.0,0.089159,-0.009536252824158374,-0.033594715938220235,0.5127218110954785,-0.017705664836049448,0.3373356393891621,0.345038427291114,0.008129890153157678,0.42835022913363446,0.34230144865673384,0.0029536167757475383,0.42734974339131054,0.26017048481116767,3.3122833060506354
115,0.0,0.0,0.089159,0.0,0.0,0.089159,-0.009536252824158518,-0.033594715938220526,0.5127218110954784,-0.017705664836049642,0.33733563938916156,0.34503842729111345,0.008129890153157373,0.42835022913363396,0.3423014486567334,0.0029536167757473718,0.42734974339131004,0.260170484811167,3.2127354077738404
116,0.0,0.0,0.089159,0.0,0.0,0.089159,-0.009536252824158374,-0.033594715938220235,0.5127218110954785,-0.017705664836049448,0.3373356393891621,0.345038427291114,0.008129890153157678,0.42835022913363446,0.34230144865673384,0.002953616775747566,0.4273497433913105,0.26017048481116767,3.1119007039867865
117,0.0,0.0,0.089159,0.0,0.0,0.089159,-0.009536252824158518,-0.033594715938220526,0.5127218110954784,-0.017705664836049642,0.33733563938916156,0.34503842729111345,0.008129890153157373,0.42835022913363396,0.3423014486567334,0.0029536167757473718,0.42734974339131004,0.260170484811167,3.006475714142605
118,0.0,0.0,0.089159,0.0,0.0,0.089159,-0.009536252824158518,-0.033594715938220526,0.5127218110954784,-0.01770566483604956,0.33733563938916183,0.34503842729111417,0.008129890153157512,0.4283502291336343,0.3423014486567342,0.0029536167757474273,0.42734974339131027,0.2601704848111679,2.905795271443146
119,0.0,0.0,0.089159,0.0,0.0,0.089159,-0.009536252824158518,-0.033594715938220526,0.5127218110954784,-0.017705664836049642,0.33733563938916156,0.34503842729111345,0.0081298901531574,0.4283502291336341,0.34230144865673323,0.002953616775747344,0.42734974339130993,0.26017048481116684,2.81454098241608
120,0.0,0.0,0.089159,0.0,0.0,0.089159,-0.009536252824158374,-0.033594715938220235,0.5127218110954785,-0.01770566483604953,0.3373356393891618,0.3450384272911132,0.008129890153157512,0.4283502291336342,0.3423014486567329,0.002953616775747455,0.42734974339131004,0.2601704848111666,2.7289516448481206
121,0.0,0.0,0.089159,0.0,0.0,0.089159,-0.009536252824158518,-0.033594715938220526,0.5127218110954784,-0.017705664836049476,0.3373356393891623,0.34503842729111467,0.00812989015315754,0.4283502291336345,0.34230144865673484,0.002953616775747566,0.42734974339131077,0.2601704848111686,2.6574753243919407
122,0.0,0.0,0.089159,0.0,0.0,0.089159,-0.009536252824158518,-0.033594715938220526,0.5127218110954784,-0.017705664836049642,0.33733563938916156,0.34503842729111345,0.008129890153157373,0.42835022913363396,0.3423014486567334,0.0029536167757473718,0.42734974339131004,0.260170484811167,2.599887086117277
123,0.0,0.0,0.089159,0.0,0.0,0.089159,-0.009536252824158518,-0.033594715938220526,0.5127218110954784,-0.01770566483604956,0.33733563938916183,0.34503842729111417,0.008129890153157512,0.4283502291336343,0.3423014486567342,0.0029536167757474273,0.42734974339131027,0.26017048481116795,2.5520328153238276
124,0.0,0.0,0.089159,0.0,0.0,0.089159,-0.009536252824158374,-0.033594715938220235,0.5127218110954785,-0.01770566483604953,0.3373356393891618,0.3450384272911132,0.008129890153157512,0.4283502291336342,0.3423014486567329,0.002953616775747455,0.42734974339131004,0.2601704848111666,2.513326088792241
125,0.0,0.0,0.089159,0.0,0.0,0.089159,-0.009536252824158374,-0.033594715938220235,0.5127218110954785,-0.01770566483604953,0.3373356393891618,0.3450384272911132,0.008129890153157512,0.4283502291336342,0.34230144865673306,0.002953616775747455,0.42734974339131004,0.26017048481116667,2.48215904018514
126,0.0,0.0,0.089159,0.0,0.0,0.089159,-0.009536252824158518,-0.033594715938220526,0.5127218110954784,-0.017705664836049642,0.33733563938916156,0.34503842729111345,0.0081298901531574,0.4283502291336341,0.34230144865673323,0.0029536167757474273,0.4273497433913098,0.26017048481116684,2.4571585918654884
127,0.0,0.0,0.089159,0.0,0.0,0.089159,-0.009536252824158374,-0.033594715938220235,0.5127218110954785,-0.01770566483604953,0.3373356393891618,0.3450384272911132,0.008129890153157512,0.4283502291336342,0.34230144865673306,0.0029536167757475106,0.4273497433913101,0.26017048481116667,2.4396898172355526
128,0.0,0.0,0.089159,0.0,0.0,0.089159,-0.009536252824158374,-0.033594715938220235,0.5127218110954785,-0.01770566483604953,0.3373356393891618,0.3450384272911132,0.008129890153157512,0.4283502291336342,0.34230144865673306,0.002953616775747455,0.42734974339131004,0.26017048481116667,2.427773880384289
129,0.0,0.0,0.089159,0.0,0.0,0.089159,-0.009536252824158518,-0.033594715938220526,0.5127218110954784,-0.01770566483604956,0.33733563938916183,0.34503842729111417,0.008129890153157512,0.4283502291336343,0.3423014486567342,0.0029536167757474273,0.42734974339131027,0.26017048481116795,2.421798736139357
130,0.0,0.0,0.089159,0.0,0.0,0.089159,-0.009536252824158518,-0.033594715938220526,0.5127218110954784,-0.01770566483604956,0.33733563938916183,0.34503842729111417,0.008129890153157512,0.4283502291336343,0.3423014486567342,0.0029536167757474273,0.42734974339131027,0.26017048481116795,2.421205358828369
131,0.0,0.0,0.089159,0.0,0.0,0.089159,-0.009536252824158374,-0.033594715938220235,0.5127218110954785,-0.017705664836049448,0.3373356393891621,0.345038427291114,0.008129890153157678,0.42835022913363446,0.34230144865673384,0.002953616775747566,0.4273497433913105,0.26017048481116767,2.4287613780980877
132,0.0,0.0,0.089159,0.0,0.0,0.089159,-0.009536252824158374,-0.033594715938220235,0.5127218110954785,-0.01770566483604953,0.3373356393891618,0.3450384272911132,0.008129890153157512,0.4283502291336342,0.3423014486567329,0.002953616775747455,0.42734974339131004,0.2601704848111666,2.441420676948924
133,0.0,0.0,0.089159,0.0,0.0,0.089159,-0.009536252824158374,-0.033594715938220235,0.5127218110954785,-0.017705664836049365,0.33733563938916244,0.34503842729111445,0.008129890153157706,0.42835022913363474,0.34230144865673445,0.002953616775747677,0.42734974339131093,0.26017048481116817,2.448530126277534
134,0.0,0.0,0.089159,0.0,0.0,0.089159,-0.009536252824158518,-0.033594715938220526,0.5127218110954784,-0.01770566483604956,0.33733563938916183,0.34503842729111417,0.008129890153157512,0.4283502291336343,0.3423014486567342,0.0029536167757474273,0.42734974339131027,0.26017048481116795,2.4410381082073824
135,0.0,0.0,0.089159,0.0,0.0,0.089159,-0.009536252824158374,-0.033594715938220235,0.5127218110954785,-0.01770566483604953,0.3373356393891618,0.3450384272911132,0.008129890153157512,0.4283502291336342,0.34230144865673306,0.002953616775747455,0.42734974339131004,0.26017048481116667,2.4205267344900774
136,0.0,0.0,0.089159,0.0,0.0,0.089159,-0.009536252824158374,-0.033594715938220235,0.5127218110954785,-0.017705664836049448,0.3373356393891621,0.345038427291114,0.008129890153157678,0.42835022913363446,0.34230144865673384,0.0029536167757475383,0.42734974339131054,0.26017048481116767,2.390687872103608
137,0.0,0.0,0.089159,0.0,0.0,0.089159,-0.009536252824158518,-0.033594715938220526,0.5127218110954784,-0.017705664836049476,0.3373356393891623,0.34503842729111467,0.008129890153157623,0.4283502291336346,0.34230144865673473,0.0029536167757475106,0.4273497433913107,0.2601704848111685,2.352421888819097
138,0.0,0.0,0.089159,0.0,0.0,0.089159,-0.009536252824158518,-0.033594715938220526,0.5127218110954784,-0.017705664836049642,0.33733563938916156,0.34503842729111345,0.008129890153157373,0.42835022913363396,0.3423014486567334,0.0029536167757473718,0.42734974339131004,0.260170484811167,2.307440630566472
139,0.0,0.0,0.089159,0.0,0.0,0.089159,-0.009536252824158518,-0.033594715938220526,0.5127218110954784,-0.01770566483604956,0.33733563938916183,0.34503842729111417,0.008129890153157512,0.4283502291336343,0.3423014486567342,0.0029536167757474273,0.42734974339131027,0.2601704848111679,2.2568368732516384
140,0.0,0.0,0.089159,0.0,0.0,0.089159,-0.009536252824158518,-0.033594715938220526,0.5127218110954784,-0.017705664836049642,0.33733563938916156,0.34503842729111345,0.008129890153157373,0.42835022913363396,0.3423014486567334,0.0029536167757473718,0.42734974339131004,0.260170484811167,2.200141994838944
141,0.0,0.0,0.089159,0.0,0.0,0.089159,-0.009536252824158374,-0.033594715938220235,0.5127218110954785,-0.01770566483604953,0.3373356393891618,0.3450384272911132,0.008129890153157512,0.4283502291336342,0.34230144865673306,0.002953616775747455,0.42734974339131004,0.26017048481116667,2.132654647169946
142,0.0,0.0,0.089159,0.0,0.0,0.089159,-0.009536252824158518,-0.033594715938220526,0.5127218110954784,-0.017705664836049642,0.33733563938916156,0.34503842729111345,0.008129890153157373,0.42835022913363396,0.3423014486567334,0.0029536167757473718,0.42734974339131004,0.260170484811167,2.0491791962127115
143,0.0,0.0,0.089159,0.0,0.0,0.089159,-0.009655508877315219,-0.03401476474611327,0.5126855834957549,-0.017716718702389903,0.3372960522013426,0.34584110766880705,0.008118914244896355,0.42831072532186515,0.34310763972907526,0.0029431945242850387,0.4273132536432445,0.26097660433060954,1.963798310529302
144,0.0,0.0,0.089159,0.0,0.0,0.089159,-0.01090920529832321,-0.03843044556006979,0.512277293263023,-0.017820416273892484,0.33692367127255907,0.3546850753725183,0.008016071362355711,0.4279392596522137,0.3519904365233803,0.002846477234632796,0.42697512329527765,0.26985861724704957,1.8759182505242575
145,0.0,0.0,0.089159,0.0,0.0,0.089159,-0.012267564143442749,-0.04321445849284245,0.5117782345920342,-0.017932127173349757,0.33652197180623217,0.3650065028812029,0.00790534792748845,0.42753861451981273,0.3623573276204907,0.0027429293777245477,0.4266135077817649,0.28022460812186295,1.7859787140834604
146,0.0,0.0,0.089159,0.0,0.0,0.089159,-0.013894952495143772,-0.04894546675700699,0.5111024459487389,-0.018048793828164336,0.3361001828172101,0.37882856966869183,0.007789987748935603,0.42711821489316937,0.3762405774680526,0.00263723135275273,0.426245630109673,0.29410667644467986,1.697043327819414
147,0.0,0.0,0.089159,0.0,0.0,0.089159,-0.015367747205696322,-0.05413138279997465,0.5104173835865874,-0.018081105022493535,0.335974736827089,0.3938685177882749,0.007759079765710383,0.42699425469939,0.39134766150412287,0.0026169329789516547,0.42617929864110715,0.30921250354453483,1.6082435972299518
148,0.0,0.0,0.089159,0.0,0.0,0.089159,-0.016800223647978407,-0.05917440442048148,0.5096838415335997,-0.01802325956430774,0.3361643259438498,0.41232071988548336,0.007818623971896945,0.42718561865612914,0.40988272310804197,0.002689577894640329,0.42644178519659875,0.3277460711302442,1.5223095286119575
149,0.0,0.0,0.089159,0.0,0.0,0.089159,-0.019172055393004223,-0.06752208790422379,0.5083226911005793,-0.018193554218991728,0.33553519008964094,0.4507235748605806,0.007651788716754451,0.42655993879752957,0.44845732880169165,0.002549900491543324,0.42596352546911637,0.36631778273720983,1.438718816227279
150,0.0,0.0,0.089159,0.0,0.0,0.089159,-0.020178251196556887,-0.07110422985246362,0.5076826273805061,-0.018522516082940352,0.3345412757792723,0.47271453761273424,0.00731052504121504,0.42557188505469185,0.4705455145092167,0.00222302467850893,0.4250584300719073,0.3884045155863883,1.3477538342085948
151,0.0,0.0,0.089159,0.0,0.0,0.089159,-0.020022331407391028,-0.07146160089799924,0.507629244870657,-0.01944302088918369,0.3351748505117428,0.48712934769491284,0.0060865369560527925,0.4262922655303578,0.48501254431429536,0.000986027709845707,0.42581308895751147,0.4028721450259951,1.245274520707948
152,0.0,0.0,0.089159,0.0,0.0,0.089159,-0.018862478807749605,-0.06932363192630908,0.5080425649076875,-0.02121975681633069,0.33774675697154344,0.5001732115072282,0.0036243563827334487,0.4290541711881881,0.4980878701869238,-0.0015192488357184983,0.4285777926796029,0.4159501420172618,1.1399531667256404
153,0.0,0.0,0.089159,0.0,0.0,0.089159,-0.01816863330555286,-0.06784493350010658,0.5083152545903074,-0.022138636593399416,0.33927798795096936,0.5113070605725824,0.0023398156622513573,0.43068491682022936,0.5092573703867566,-0.0028241594857484923,0.43022599798010486,0.427120820945177,1.036194758343593
154,0.0,0.0,0.089159,0.0,0.0,0.089159,-0.01966970845743571,-0.07093968188195127,0.5077347567080146,-0.020115267892962266,0.3359597777578983,0.5221019492517168,0.005169060544635725,0.4271488376521304,0.5201320276629694,7.369789325031525e-05,0.426787180904757,0.4379907074651058,0.9270622320094277
155,0.0,0.0,0.089159,0.0,0.0,0.089159,-0.025588821796402778,-0.0821463936217069,0.5053586903098554,-0.013438371642191322,0.3238645317898413,0.5333100768140744,0.01470611748696046,0.4142152445759315,0.5315048259438339,0.009855442290062879,0.41408470984192425,0.449348000841975,0.8017275733373576
156,0.0,0.0,0.089159,0.0,0.0,0.089159,-0.03366761061373098,-0.09551954975466145,0.5019149903989631,-0.006760021065116934,0.30916714899899467,0.5376703043613769,0.024699104185339597,0.3984209282495151,0.5360244526136558,0.02016897039397577,0.39850233511701827,0.4538492662083044,0.664922887620221
157,0.0,0.0,0.089159,0.0,0.0,0.089159,-0.041905271254720745,-0.10700558069605556,0.4983273686955385,-0.0012887974437918639,0.2960352723628853,0.5393414860295423,0.03322116906543758,0.3841568594861591,0.5378346368641954,0.028987079266325204,0.38440957194414616,0.4556440131897965,0.5433534722349423
158,0.0,0.0,0.089159,0.0,0.0,0.089159,-0.05316747383225531,-0.1194990603972454,0.49353282987833413,0.005358796802356326,0.28055547463841,0.5415414712151781,0.043830330009474214,0.3670239814941489,0.540214461481734,0.03994836534118669,0.3674895329456596,0.4580073838535872,0.42265262919478314
159,0.0,0.0,0.089159,0.0,0.0,0.089159,-0.06625975428646991,-0.12998938539745594,0.4883298965416796,0.012717846103264669,0.2652962418328937,0.5456500198997851,0.05569887354559368,0.34961706985327606,0.54453120715456,0.05216278286047833,0.3503285784622943,0.46231028634868515,0.3267221247173501
160,0.0,0.0,0.089159,0.0,0.0,0.089159,-0.08479888321142645,-0.14034792630688878,0.4812516025666016,0.02133748177484604,0.24637988504813685,0.551611086305843,0.07028284771734192,0.32738779879193053,0.5507794832555535,0.06719411996375392,0.32840981592161733,0.46854381434083714,0.25347665729507646
161,0.0,0.0,0.089159,0.0,0.0,0.089159,-0.10078379386340387,-0.14611608751529892,0.4753166308500462,0.027276524144359382,0.23178311794733378,0.5563507623161247,0.08101648475638164,0.30969517593679957,0.5557588558501971,0.07829246076614468,0.3109492486769262,0.4735135095085158,0.18780940253172268
162,0.0,0.0,0.089159,0.0,0.0,0.089159,-0.11840873117344197,-0.14880920607853257,0.46923819249568566,0.03361887652914142,0.2175507231484953,0.5611174271082822,0.092551861032402,0.29161427025800934,0.5607756273200117,0.09019099866888575,0.2931132368850057,0.47852315363106007,0.12790147757621287
163,0.0,0.0,0.089159,0.0,0.0,0.089159,-0.13904558484634913,-0.1472334992117394,0.46280806268396224,0.041369078032933534,0.20277645748215448,0.5663327681087706,0.10635593814823595,0.27159016941305025,0.5662730802055091,0.10438386646833313,0.27338122240378127,0.48401620777241866,0.07573690829328134
164,0.0,0.0,0.089159,0.0,0.0,0.089159,-0.15749250297311676,-0.141771922799744,0.45756344271605376,0.048548457206184316,0.19056204892605605,0.5710316715968587,0.1188945928403634,0.2538863769109977,0.5713022018044094,0.11730895565523873,0.25599925539991814,0.48904460945447376,0.0350873836361327
165,0.0,0.0,0.089159,0.0,0.0,0.089159,-0.1866993001119418,-0.1255381499550468,0.4497259760856854,0.05975744871777591,0.17171203657963452,0.578858398665696,0.13829962318240718,0.22452444279911174,0.5796324010405882,0.13737165867477902,0.2271099953108597,0.4973782595030244,0.009471033471450372
166,0.0,0.0,0.089159,0.0,0.0,0.089159,-0.2069777120927047,-0.1088224924141091,0.4440433358640257,0.06636484696648645,0.15820954055686356,0.5845834503308995,0.15013813911616058,0.202254951822054,0.5853957119178131,0.1495167541710028,0.20495368318606372,0.5031423184937432,0.00011332268774766476
167,0.0,0.0,0.089159,0.0,0.0,0.089159,-0.22711330376250044,-0.0864857173375778,0.4378203944082236,0.071555741669594,0.14404493972087679,0.5908766012633484,0.1600080439145077,0.17772795469690725,0.5913935439090477,0.15946122182824696,0.1804262950348108,0.5091396081671831,2.1810412089715954e-05
168,0.0,0.0,0.089159,0.0,0.0,0.089159,-0.24578681753813947,-0.055961070032713736,0.43133176186930355,0.07621633411306364,0.1292963948236036,0.597967373434487,0.16850449376744203,0.15030868595900776,0.5979260352080112,0.1678556654582252,0.1529965867367629,0.5156724990455209,2.181041259355704e-05
169,0.0,0.0,0.089159,0.0,0.0,0.089159,-0.25504303523514266,-0.028144071420584022,0.4279597695119934,0.08167179423200793,0.11882506479717708,0.6034504576305172,0.17574981610947993,0.12920660125419015,0.6030357283048101,0.17509039436866397,0.13189639563080413,0.5207823382884755,2.181041259365293e-05
170,0.0,0.0,0.089159,0.0,0.0,0.089159,-0.2587617113993828,0.017914003814138966,0.4258286677471994,0.09329854698330484,0.10295221875814409,0.6118282953453548,0.1877175951425241,0.0964156134070051,0.6108594634763023,0.18705916933849567,0.09909622006139977,0.5286057655446896,2.181041259362761e-05
171,0.0,0.0,0.089159,0.0,0.0,0.089159,-0.2534073261882263,0.051105542668095354,0.4264985182049285,0.10362528303072176,0.09044908964286809,0.6182107668114107,0.19639771924779875,0.07173934763432163,0.6168531467165353,0.19573556597830033,0.07442455081014858,0.5345996286340108,2.181041259264552e-05
172,0.0,0.0,0.089159,0.0,0.0,0.089159,-0.24454363179251193,0.07496204358353653,0.42857630093132876,0.11289349626629591,0.07955686107637258,0.623490056570275,0.2033737841662757,0.05182116731180541,0.621855647522656,0.2027141260099036,0.054516226696059336,0.5396024317433804,2.1810412592773196e-05
173,0.0,0.0,0.089159,0.0,0.0,0.089159,-0.23119532028269646,0.09672238922477899,0.4324060004268524,0.12410000943074104,0.06639873593180762,0.628924421280439,0.21139924564859025,0.029876410598992265,0.6270308510905142,0.2107404994668827,0.03256639618842431,0.5447774619141602,2.181041259266331e-05
174,0.0,0.0,0.089159,0.0,0.0,0.089159,-0.21503803445809294,0.11377977730759391,0.43763827630238555,0.13589992711518226,0.05158066691875002,0.634482384148241,0.2195398048203992,0.007325581155055877,0.6323656079426787,0.2188785175287087,0.0100100718800515,0.5501120596382726,2.1810412594483118e-05
175,0.0,0.0,0.089159,0.0,0.0,0.089159,-0.1953579435646575,0.12669846940316698,0.44469770638382383,0.14891362543994685,0.03351798767990697,0.6410857650863052,0.22830110406494378,-0.017968385721469533,0.6387610948861115,0.22763932969863615,-0.015274952915682934,0.556507842826337,2.181041259355704e-05
176,0.0,0.0,0.089159,0.0,0.0,0.089159,-0.1654175326102032,0.13384266393875677,0.45705597092382994,0.1686405127899122,0.003953775656013944,0.6502084599166659,0.24219483947594977,-0.05556051445361651,0.6476721636976838,0.2415332918056595,-0.05287276674914347,0.5654187238489029,2.181041259353172e-05
177,0.0,0.0,0.089159,0.0,0.0,0.089159,-0.14752350064331504,0.13315440174389753,0.4648340218661958,0.17988182533783525,-0.015324807765093679,0.6559713072470494,0.2501164727338654,-0.07871845292403594,0.6533326411792355,0.24945401501877948,-0.07602872451897989,0.5710792734008717,2.1810412593537657e-05
178,0.0,0.0,0.089159,0.0,0.0,0.089159,-0.12617434023295593,0.12701072318170897,0.47461108789632667,0.19364710375756292,-0.040056879173188474,0.6632282801328913,0.2603254801525998,-0.10717725235664208,0.6604947613318379,0.259662880320209,-0.10448567198321973,0.5782414552794032,2.1810412592639053e-05
179,0.0,0.0,0.089159,0.0,0.0,0.089159,-0.10891302301336493,0.11817801257259994,0.48260138556932414,0.20523102436208296,-0.06162869297447034,0.6690332796724565,0.26934687872423013,-0.13119874097102907,0.6662425555426914,0.2686843620361921,-0.12850981500923075,0.5839891620029106,2.1810412594465866e-05
180,0.0,0.0,0.089159,0.0,0.0,0.089159,-0.09462983457668228,0.10924055571170907,0.48882973372438304,0.21432578003811315,-0.0807129224314678,0.673864566497306,0.27627013442453996,-0.15222140304734982,0.6710261409378092,0.27560692287312166,-0.1495309841113213,0.5887728018178274,2.181041259359745e-05
181,0.0,0.0,0.089159,0.0,0.0,0.089159,-0.08289668575375919,0.09989589857650233,0.4938489417314886,0.22215373005021877,-0.09678686694182012,0.6783317825755216,0.28256855234731665,-0.16959065759491812,0.6754543160944035,0.2818887363071259,-0.16690384403892616,0.5932009946838559,2.1810412593658867e-05
182,0.0,0.0,0.089159,0.0,0.0,0.089159,-0.0676151221124657,0.08389895181945646,0.5002723191047365,0.2343847944326109,-0.11688705988792637,0.6853528769961839,0.2937490415684036,-0.19054806868029692,0.6824263695742162,0.292996616087962,-0.18788657453015956,0.6001728571581183,2.1810412593543593e-05
183,0.0,0.0,0.089159,0.0,0.0,0.089159,-0.05943313960614843,0.07487148838719804,0.5032688430890551,0.2409190095402752,-0.12794174494704735,0.6888198169146685,0.29973730592711234,-0.20203867837414363,0.685874487247099,0.29895895601762196,-0.1993869800034065,0.603620899682975,2.181041259267084e-05
184,0.0,0.0,0.089159,0.0,0.0,0.089159,-0.054120112762197706,0.06995366009611778,0.5048541994355525,0.24374261308993325,-0.13667611077246736,0.6902071582431596,0.3016316102087495,-0.2115012915560485,0.6872611722822181,0.30088938330837633,-0.20883706897498855,0.6050076555351092,2.1810412592740876e-05
185,0.0,0.0,0.089159,0.0,0.0,0.089159,-0.05080659502476241,0.06859002108084744,0.5054991240693943,0.24298621063428716,-0.1446595514968095,0.689847143148609,0.29929694719948363,-0.22068028462864317,0.6869194167980823,0.29866670042078136,-0.21797937195466965,0.6046661623960495,2.181041259451328e-05
186,0.0,0.0,0.089159,0.0,0.0,0.089159,-0.05033554561477286,0.07315678554701043,0.5047783180978138,0.23653928235626842,-0.1512220816505424,0.6867968392206063,0.2901657745756487,-0.22916187025773252,0.6839313228428459,0.28979622290791474,-0.2263920620735941,0.6016787751972685,2.181041259355704e-05
187,0.0,0.0,0.089159,0.0,0.0,0.089159,-0.05308830241598474,0.08157618547379925,0.5028641584282377,0.22854455090245526,-0.15107418327249902,0.68267107390683,0.28014879437344015,-0.2303699440891812,0.6798769958315336,0.2800292065021058,-0.22754954019417892,0.5976254242926865,2.1810412592699402e-05
188,0.0,0.0,0.089159,0.0,0.0,0.089159,-0.055836918007565475,0.09006962357874138,0.5007348757456519,0.22114127945022677,-0.14956319041992822,0.6785914966179466,0.27099134064869534,-0.22997551262304314,0.6758615998412588,0.27109665653380605,-0.22711792999499167,0.5936112920601434,2.1810412593562976e-05
189,0.0,0.0,0.089159,0.0,0.0,0.089159,-0.05841568518191345,0.10130131836582836,0.4977549503251013,0.21143283946790872,-0.14815731390139195,0.6730431402629354,0.2586964012875168,-0.23011922366048906,0.6703929378620418,0.25910835785094877,-0.22722221589972805,0.5881449735235615,2.181041259362708e-05
190,0.0,0.0,0.089159,0.0,0.0,0.089159,-0.05906096434989744,0.11276905891476528,0.4946462893711199,0.20107591707893663,-0.1486675064621522,0.6671383477517927,0.2449729635891758,-0.23248308030615722,0.6645651417984986,0.24573513797884222,-0.22955893098222477,0.5823206377819317,2.181041259444161e-05
191,0.0,0.0,0.089159,0.0,0.0,0.089159,-0.05622019032743592,0.130625981021543,0.48966011520657027,0.1841713669668828,-0.1518187266522884,0.6576204417383325,0.2215767497313645,-0.2387290481168613,0.6551595753934855,0.22294280409632367,-0.23581257101868708,0.5729226125555511,2.1810412593525256e-05
192,0.0,0.0,0.089159,0.0,0.0,0.089159,-0.05020496391714815,0.14843703766169336,0.4842171064201807,0.16740462139055204,-0.15427794757217178,0.6478737320027447,0.19772056586969974,-0.24391069773763313,0.6455208384409342,0.19970331520377615,-0.24108158253295936,0.5632933806653414,2.181041259355541e-05
193,0.0,0.0,0.089159,0.0,0.0,0.089159,-0.04265926867676036,0.1619954739599125,0.4797516947761149,0.15410168071639643,-0.15657004036391375,0.6396733220736746,0.17819771869074552,-0.24807299409568545,0.6373901417698044,0.1806807006291219,-0.2453676318733166,0.5551721035060542,2.181041259267084e-05
194,0.0,0.0,0.089159,0.0,0.0,0.089159,-0.030299171961450856,0.1764638098272768,0.47460352778537807,0.13825056976935685,-0.1601805269893651,0.6296369437051768,0.15426331506863222,-0.25343951244864316,0.627406222053627,0.15733962534702836,-0.2509449983210873,0.5452015767205408,2.181041259357538e-05
195,0.0,0.0,0.089159,0.0,0.0,0.089159,-0.0040067801473389515,0.19494750926922477,0.46678899661385004,0.11259682007837778,-0.1665814078055559,0.6133298698647545,0.11454123728640993,-0.2611858718119346,0.6111305218279748,0.11853439885281249,-0.2591933187614339,0.5289516048659855,2.1810412593651298e-05
196,0.0,0.0,0.089159,0.0,0.0,0.089159,0.016042084015993024,0.20209417442012745,0.4626902519801669,0.09584012667031784,-0.17199978731274662,0.6021885142759444,0.08835247250883405,-0.2663273876308874,0.5999836665761924,0.09290082206909278,-0.26476800789203825,0.5178242431902669,2.1810412593621144e-05
197,0.0,0.0,0.089159,0.0,0.0,0.089159,0.03782077052672406,0.20505651954911888,0.4594918409784456,0.07812123906957218,-0.17821329862949797,0.5908459566678936,0.06095829895344636,-0.27126726658077316,0.588606529264889,0.0660193553241878,-0.270224015917981,0.5064689170737208,2.181041259350103e-05
198,0.0,0.0,0.089159,0.0,0.0,0.089159,0.057880825501719385,0.20367829740228374,0.4576558944327026,0.06098048991242731,-0.18471282601884637,0.5797890689931532,0.03511484636989218,-0.275732091816024,0.5775342435291265,0.04059913804086149,-0.27525634844415,0.49541855554496705,2.181041259264499e-05
199,0.0,0.0,0.089159,0.0,0.0,0.089159,0.07676228106424107,0.19820032428090367,0.45719321533976853,0.04269053198905678,-0.19199692996387074,0.5683642713516488,0.008516916433221007,-0.2802332563735409,0.5660977317936305,0.014360844248819359,-0.28038787664954673,0.48400562133071023,2.1810412594449708e-05
200,0.0,0.0,0.089159,0.0,0.0,0.089159,0.08934973801928695,0.19154634646474955,0.4578751801059061,0.02811549057149449,-0.19792570027640793,0.5595397105319907,-0.011885120573796128,-0.2836782843806703,0.5572885047562598,-0.0058242087940476375,-0.28435086164811973,0.4752147392266008,2.1810412593659396e-05
201,0.0,0.0,0.089159,0.0,0.0,0.089159,0.10736737161127805,0.17442943728200694,0.4615453839116143,-0.0008816614236377813,-0.20965832464806328,0.5423694086972899,-0.050483756929290136,-0.2902420763072339,0.5402448875791909,-0.044162989763179894,-0.29196984753167304,0.4582061606934827,2.1810412594537498e-05
202,0.0,0.0,0.089159,0.0,0.0,0.089159,0.11534912364355021,0.15957818068903604,0.46579461159646385,-0.02290116303300925,-0.21800286837435173,0.529772690827093,-0.07833700471449911,-0.29469483173285066,0.5278149591592008,-0.07195873564815244,-0.29721170019307375,0.4458011002274861,2.181041259362708e-05
203,0.0,0.0,0.089159,0.0,0.0,0.089159,0.11828159367732774,0.1481376525772602,0.46953999385491185,-0.03908188577732083,-0.22387791622179548,0.520676447633419,-0.09812917756505163,-0.2978296354045346,0.5188923337211664,-0.09178338178739633,-0.30091827701245005,0.4368954973860604,2.181041259355704e-05
204,0.0,0.0,0.089159,0.0,0.0,0.089159,0.11837587358218946,0.13323618696516776,0.4749831452224528,-0.059564422451738125,-0.23137799598949588,0.509152336545356,-0.1224218025577467,-0.3021261763279848,0.5076465991839947,-0.11619294993097182,-0.3059155941170024,0.42567018972508874,2.1810412592650925e-05
205,0.0,0.0,0.089159,0.0,0.0,0.089159,0.11346058936201153,0.11303283756813415,0.4828279882285888,-0.08727820010583662,-0.24101986762664912,0.49398170273268543,-0.15432819566871397,-0.3078170815713126,0.49295564023508587,-0.14840938213680407,-0.3124994216895952,0.4110024015108523,2.1810412593525256e-05
206,0.0,0.0,0.089159,0.0,0.0,0.089159,0.10538018957994526,0.09649748682596444,0.489419228701738,-0.11013180216512139,-0.24884733222034272,0.48133700302141086,-0.17993558539329832,-0.31276721777277416,0.4807869321189214,-0.17437393196142675,-0.3181357152077972,0.398850754233973,2.1810412593562976e-05
207,0.0,0.0,0.089159,0.0,0.0,0.089159,0.09525532163539868,0.08112679578361734,0.49532382701733296,-0.13194305016890495,-0.2557444178345551,0.46939179499334494,-0.20400091848544386,-0.3171144691094726,0.469337756208023,-0.19886100545535085,-0.32307738047147894,0.38741514039204744,2.1810412592639053e-05
208,0.0,0.0,0.089159,0.0,0.0,0.089159,0.08495210238003256,0.06884253703078884,0.49985212801211676,-0.14948912307762535,-0.2616313145287032,0.4598755068273993,-0.22302430781654392,-0.3212219372735935,0.4602714693120752,-0.21828695605661194,-0.32761215695225393,0.3783568027940387,2.1810412592621296e-05
209,0.0,0.0,0.089159,0.0,0.0,0.089159,0.07372440105350675,0.05724002802604378,0.5037832779684752,-0.16630726100513116,-0.2673078987202906,0.450611580101812,-0.24106609478187166,-0.32535106605267056,0.4514659795207189,-0.23675162368528552,-0.33211374117261616,0.3695578507154606,2.1810412594455644e-05
210,0.0,0.0,0.089159,0.0,0.0,0.089159,0.061110427434023847,0.0453359156431743,0.5072919578156042,-0.18428142159493424,-0.27261946441159307,0.44050122698880917,-0.2602894684761403,-0.32900745829347583,0.4418404264814686,-0.25644786091714045,-0.33613087163699507,0.3599393334869302,2.1810412592675143e-05
211,0.0,0.0,0.089159,0.0,0.0,0.089159,0.05410316077281057,0.03928743924596488,0.5088664518183899,-0.1935350385693991,-0.275429153102345,0.43536424962542325,-0.270111600920631,-0.3310358312508297,0.4369611039577605,-0.26652981934068287,-0.3383202229837693,0.3550623953122964,2.1810412592675675e-05
212,0.0,0.0,0.089159,0.0,0.0,0.089159,0.046723675641123286,0.03329218144390432,0.5102688773352262,-0.20269619661140445,-0.27845157086712097,0.4303980740302957,-0.27976499932256477,-0.3333656703124087,0.43225921098959647,-0.2764544438623027,-0.34078750797216006,0.35036142989452135,2.1810412593562976e-05
213,0.0,0.0,0.089159,0.0,0.0,0.089159,0.04041143799899531,0.028399050938425624,0.511279136435885,-0.21015843437542897,-0.28109516529482503,0.42641539755742885,-0.28757988192052975,-0.33550292083842936,0.42849820737318606,-0.2844995114001171,-0.3430214185996821,0.3466002616793471,2.1810412594411452e-05
214,0.0,0.0,0.089159,0.0,0.0,0.089159,0.03240723726823534,0.02242478850480764,0.5123278786207641,-0.21928167749750346,-0.2844698027961627,0.4215413982712368,-0.2970903307191284,-0.3383109428280394,0.42390097956984474,-0.2942996632569994,-0.3459330851523441,0.3420022303638657,2.1810412593526882e-05
215,0.0,0.0,0.089159,0.0,0.0,0.089159,0.028716315904931327,0.019735250190410874,0.5127282305878346,-0.2234232660523318,-0.28598865983428434,0.41928141657243534,-0.30140107521163345,-0.33957880648523175,0.42176736923599834,-0.2987432239717738,-0.3472453373249886,0.3398683452389455,3.1261319916423003
216,0.0,0.0,0.089159,0.0,0.0,0.089159,0.026966444710500637,0.018468412730363426,0.5129003463315757,-0.225404829310486,-0.28666641605181764,0.4181624905763761,-0.30346803309265824,-0.3401292840563617,0.42070816533795524,-0.3008729661176718,-0.3478181218678555,0.33880921906571154,3.1250152981253185
217,0.0,0.0,0.089159,0.0,0.0,0.089159,0.02678122285780732,0.018333873980265303,0.5129179352062281,-0.2256199808958478,-0.28673131156159204,0.4180356401558969,-0.3036934892334541,-0.340178828811611,0.420587638523185,-0.3011050574567319,-0.34787037061797293,0.33868873617658307,3.1203937002768725
218,0.0,0.0,0.089159,0.0,0.0,0.089159,0.02678122286053029,0.018333873982194927,0.5129179352059725,-0.22561998089325289,-0.28673131156051807,0.41803564015873307,-0.3036934892307527,-0.3401788288106552,0.42058763852680203,-0.30110505745457355,-0.3478703706173973,0.33868873618021866,3.111849098692235
219,0.0,0.0,0.089159,0.0,0.0,0.089159,0.02678122286052992,0.018333873982194757,0.5129179352059725,-0.22561998089325305,-0.28673131156051823,0.41803564015873274,-0.30369348923075284,-0.34017882881065536,0.4205876385268018,-0.3011050574545736,-0.34787037061739745,0.33868873618021833,3.100467734956054
220,0.0,0.0,0.089159,0.0,0.0,0.089159,0.026781222860529957,0.01833387398219471,0.5129179352059725,-0.22561998089325358,-0.2867313115605179,0.4180356401587328,-0.3036934892307535,-0.3401788288106549,0.4205876385268016,-0.3011050574545744,-0.3478703706173969,0.3386887361802184,3.0876375601116726
221,0.0,0.0,0.089159,0.0,0.0,0.089159,0.02678122286053029,0.018333873982194927,0.5129179352059725,-0.22561998089325272,-0.28673131156051795,0.41803564015873246,-0.3036934892307525,-0.3401788288106551,0.42058763852680114,-0.3011050574545734,-0.3478703706173971,0.338688736180218,3.0741262703768846
222,0.0,0.0,0.089159,0.0,0.0,0.089159,0.02678122286053029,0.018333873982194927,0.5129179352059725,-0.22561998089325272,-0.28673131156051795,0.41803564015873246,-0.3036934892307525,-0.3401788288106551,0.42058763852680114,-0.30110505745457317,-0.3478703706173971,0.338688736180218,3.059784934614741
223,0.0,0.0,0.089159,0.0,0.0,0.089159,0.02678122286052962,0.018333873982194434,0.5129179352059726,-0.22561998089325383,-0.28673131156051807,0.4180356401587325,-0.3036934892307538,-0.340178828810655,0.4205876385268012,-0.3011050574545746,-0.3478703706173971,0.33868873618021783,3.043366994451991
224,0.0,0.0,0.089159,0.0,0.0,0.089159,0.026781222860529582,0.01833387398219448,0.5129179352059726,-0.22561998089325316,-0.28673131156051834,0.41803564015873185,-0.30369348923075307,-0.34017882881065553,0.4205876385268005,-0.3011050574545737,-0.34787037061739745,0.33868873618021716,3.0256656661111556
225,0.0,0.0,0.089159,0.0,0.0,0.089159,0.02678122286052992,0.018333873982194757,0.5129179352059725,-0.22561998089325305,-0.28673131156051823,0.41803564015873274,-0.30369348923075284,-0.3401788288106554,0.4205876385268016,-0.3011050574545737,-0.34787037061739734,0.33868873618021833,3.0070236974133557
226,0.0,0.0,0.089159,0.0,0.0,0.089159,0.02678122286052992,0.018333873982194757,0.5129179352059725,-0.22561998089325305,-0.28673131156051823,0.41803564015873274,-0.30369348923075284,-0.34017882881065536,0.4205876385268018,-0.30110505745457383,-0.34787037061739745,0.33868873618021833,2.9875214072453105
227,0.0,0.0,0.089159,0.0,0.0,0.089159,0.02678122286052992,0.018333873982194757,0.5129179352059725,-0.22561998089325305,-0.28673131156051823,0.41803564015873274,-0.30369348923075284,-0.3401788288106554,0.4205876385268016,-0.3011050574545738,-0.3478703706173974,0.3386887361802182,2.9673569962667368
228,0.0,0.0,0.089159,0.0,0.0,0.089159,0.026781222860529957,0.01833387398219471,0.5129179352059725,-0.22561998089325344,-0.28673131156051773,0.4180356401587322,-0.3036934892307535,-0.34017882881065475,0.4205876385268009,-0.3011050574545742,-0.34787037061739673,0.3386887361802176,2.9467892069474795
229,0.0,0.0,0.089159,0.0,0.0,0.089159,0.02678122286053029,0.018333873982194927,0.5129179352059725,-0.22561998089325272,-0.28673131156051795,0.41803564015873246,-0.3036934892307525,-0.3401788288106551,0.4205876385268013,-0.3011050574545734,-0.34787037061739723,0.33868873618021805,2.9206042552200566
230,0.0,0.0,0.089159,0.0,0.0,0.089159,0.02678122286052992,0.018333873982194757,0.5129179352059725,-0.22561998089325297,-0.2867313115605181,0.4180356401587322,-0.30369348923075284,-0.34017882881065525,0.42058763852680087,-0.30110505745457344,-0.34787037061739723,0.3386887361802176,2.88677239612317
231,0.0,0.0,0.089159,0.0,0.0,0.089159,0.02678122286052962,0.018333873982194434,0.5129179352059726,-0.22561998089325375,-0.286731311560518,0.4180356401587319,-0.3036934892307537,-0.340178828810655,0.42058763852680053,-0.3011050574545744,-0.34787037061739684,0.33868873618021716,2.8457049348103314
232,0.0,0.0,0.089159,0.0,0.0,0.089159,0.02678122286052992,0.018333873982194757,0.5129179352059725,-0.22561998089325297,-0.2867313115605181,0.4180356401587322,-0.3036934892307528,-0.34017882881065525,0.4205876385268009,-0.30110505745457344,-0.3478703706173973,0.33868873618021755,2.7966622787443454
233,0.0,0.0,0.089159,0.0,0.0,0.089159,0.02678122286052962,0.018333873982194434,0.5129179352059726,-0.22561998089325383,-0.28673131156051807,0.4180356401587325,-0.3036934892307538,-0.340178828810655,0.4205876385268012,-0.30110505745457483,-0.3478703706173971,0.33868873618021794,2.7401483293701068
234,0.0,0.0,0.089159,0.0,0.0,0.089159,0.026781222860529957,0.01833387398219471,0.5129179352059725,-0.22561998089325344,-0.28673131156051773,0.4180356401587322,-0.3036934892307535,-0.34017882881065475,0.4205876385268009,-0.30110505745457417,-0.3478703706173968,0.3386887361802176,2.675379372642751
235,0.0,0.0,0.089159,0.0,0.0,0.089159,0.02678122286053029,0.018333873982194927,0.5129179352059725,-0.22561998089325289,-0.28673131156051807,0.41803564015873307,-0.3036934892307527,-0.3401788288106552,0.42058763852680203,-0.30110505745457355,-0.3478703706173973,0.33868873618021866,2.6081461895834943
236,0.0,0.0,0.089159,0.0,0.0,0.089159,0.026781222860529957,0.01833387398219471,0.5129179352059725,-0.22561998089325358,-0.2867313115605179,0.4180356401587328,-0.3036934892307535,-0.3401788288106549,0.4205876385268016,-0.3011050574545744,-0.3478703706173969,0.3386887361802184,2.553860097915018
237,0.0,0.0,0.089159,0.0,0.0,0.089159,0.02678122286052992,0.018333873982194757,0.5129179352059725,-0.22561998089325297,-0.2867313115605181,0.4180356401587322,-0.3036934892307528,-0.34017882881065525,0.4205876385268009,-0.3011050574545735,-0.34787037061739723,0.33868873618021766,2.5082616407880756
238,0.0,0.0,0.089159,0.0,0.0,0.089159,0.02678122286052962,0.018333873982194434,0.5129179352059726,-0.22561998089325375,-0.286731311560518,0.4180356401587319,-0.3036934892307537,-0.340178828810655,0.42058763852680053,-0.3011050574545743,-0.34787037061739695,0.3386887361802172,2.4775611089536818
239,0.0,0.0,0.089159,0.0,0.0,0.089159,0.02678122286052962,0.018333873982194434,0.5129179352059726,-0.22561998089325383,-0.28673131156051807,0.4180356401587325,-0.3036934892307538,-0.340178828810655,0.4205876385268012,-0.3011050574545746,-0.3478703706173972,0.338688736180218,2.4582917405279607
240,0.0,0.0,0.089159,0.0,0.0,0.089159,0.02678122286053029,0.018333873982194927,0.5129179352059725,-0.22561998089325289,-0.28673131156051807,0.41803564015873307,-0.3036934892307527,-0.3401788288106552,0.42058763852680203,-0.3011050574545735,-0.34787037061739734,0.3386887361802187,2.4496446749914145
241,0.0,0.0,0.089159,0.0,0.0,0.089159,0.026781222860530328,0.01833387398219488,0.5129179352059725,-0.22561998089325333,-0.2867313115605177,0.4180356401587331,-0.30369348923075334,-0.34017882881065464,0.42058763852680214,-0.30110505745457417,-0.3478703706173969,0.33868873618021883,2.4488815752780155
242,0.0,0.0,0.089159,0.0,0.0,0.089159,0.026781222860529957,0.01833387398219471,0.5129179352059725,-0.22561998089325358,-0.2867313115605179,0.4180356401587328,-0.3036934892307535,-0.3401788288106549,0.4205876385268016,-0.3011050574545744,-0.3478703706173969,0.3386887361802184,2.4578342306681074
243,0.0,0.0,0.089159,0.0,0.0,0.089159,0.026781222860529582,0.01833387398219448,0.5129179352059726,-0.22561998089325325,-0.2867313115605184,0.41803564015873246,-0.3036934892307532,-0.3401788288106555,0.42058763852680114,-0.30110505745457394,-0.3478703706173976,0.33868873618021794,2.4745081189323543
244,0.0,0.0,0.089159,0.0,0.0,0.089159,0.026781222860529957,0.01833387398219471,0.5129179352059725,-0.22561998089325344,-0.28673131156051773,0.4180356401587322,-0.3036934892307535,-0.34017882881065475,0.4205876385268009,-0.30110505745457417,-0.3478703706173968,0.3386887361802176,2.4908884736314856
245,0.0,0.0,0.089159,0.0,0.0,0.089159,0.026781222860529957,0.01833387398219471,0.5129179352059725,-0.22561998089325344,-0.28673131156051773,0.4180356401587322,-0.3036934892307535,-0.34017882881065475,0.4205876385268009,-0.30110505745457417,-0.3478703706173968,0.3386887361802176,2.498056634911713
246,0.0,0.0,0.089159,0.0,0.0,0.089159,0.02678122286052992,0.018333873982194757,0.5129179352059725,-0.22561998089325305,-0.28673131156051823,0.41803564015873274,-0.30369348923075284,-0.3401788288106554,0.4205876385268016,-0.3011050574545738,-0.3478703706173974,0.3386887361802182,2.491899937808908
247,0.0,0.0,0.089159,0.0,0.0,0.089159,0.026781222860530328,0.01833387398219488,0.5129179352059725,-0.225619980893253,-0.2867313115605174,0.41803564015873174,-0.303693489230753,-0.34017882881065453,0.42058763852680053,-0.3011050574545737,-0.3478703706173965,0.3386887361802171,2.4760325721744088
248,0.0,0.0,0.089159,0.0,0.0,0.089159,0.02678122286052992,0.018333873982194757,0.5129179352059725,-0.22561998089325305,-0.28673131156051823,0.41803564015873274,-0.30369348923075284,-0.34017882881065536,0.4205876385268018,-0.30110505745457383,-0.34787037061739745,0.33868873618021833,2.4521192120060626
249,0.0,0.0,0.089159,0.0,0.0,0.089159,0.02678122286052992,0.018333873982194757,0.5129179352059725,-0.22561998089325305,-0.28673131156051823,0.41803564015873274,-0.30369348923075284,-0.3401788288106554,0.4205876385268016,-0.3011050574545737,-0.34787037061739734,0.33868873618021833,2.420315036335836
250,0.0,0.0,0.089159,0.0,0.0,0.089159,0.02678122286052992,0.018333873982194757,0.5129179352059725,-0.22561998089325305,-0.28673131156051823,0.41803564015873274,-0.30369348923075296,-0.3401788288106554,0.4205876385268014,-0.30110505745457367,-0.3478703706173973,0.3386887361802182,2.380036464602574
251,0.0,0.0,0.089159,0.0,0.0,0.089159,0.026781222860530328,0.01833387398219488,0.5129179352059725,-0.22561998089325333,-0.2867313115605177,0.4180356401587331,-0.30369348923075334,-0.3401788288106547,0.42058763852680203,-0.30110505745457417,-0.3478703706173969,0.3386887361802188,2.3294051464239383
252,0.0,0.0,0.089159,0.0,0.0,0.089159,0.026781222860529582,0.01833387398219448,0.5129179352059726,-0.22561998089325325,-0.2867313115605184,0.41803564015873246,-0.3036934892307532,-0.3401788288106555,0.42058763852680114,-0.30110505745457394,-0.3478703706173976,0.33868873618021794,2.261381018366719
253,0.0,0.0,0.089159,0.0,0.0,0.089159,0.02678122286052992,0.018333873982194757,0.5129179352059725,-0.22561998089325305,-0.28673131156051823,0.41803564015873274,-0.30369348923075284,-0.3401788288106554,0.4205876385268016,-0.3011050574545739,-0.34787037061739745,0.33868873618021833,2.1711236330310766
254,0.0,0.0,0.089159,0.0,0.0,0.089159,0.026781222860529957,0.01833387398219471,0.5129179352059725,-0.22561998089325344,-0.28673131156051773,0.4180356401587322,-0.3036934892307534,-0.34017882881065475,0.42058763852680103,-0.30110505745457417,-0.3478703706173969,0.3386887361802177,2.0782191639894982
255,0.0,0.0,0.089159,0.0,0.0,0.089159,0.02678122286052962,0.018333873982194434,0.5129179352059726,-0.22561998089325383,-0.28673131156051807,0.4180356401587325,-0.3036934892307538,-0.340178828810655,0.4205876385268012,-0.3011050574545746,-0.3478703706173972,0.338688736180218,1.9779989781849634
256,0.0,0.0,0.089159,0.0,0.0,0.089159,0.02678122286052992,0.018333873982194757,0.5129179352059725,-0.22561998089325305,-0.28673131156051823,0.41803564015873274,-0.30369348923075296,-0.3401788288106554,0.4205876385268014,-0.3011050574545737,-0.34787037061739734,0.3386887361802181,1.8747782262265065
257,0.0,0.0,0.089159,0.0,0.0,0.089159,0.02678122286052992,0.018333873982194757,0.5129179352059725,-0.22561998089325297,-0.2867313115605181,0.4180356401587322,-0.30369348923075284,-0.34017882881065525,0.42058763852680087,-0.3011050574545735,-0.3478703706173973,0.3386887361802176,1.771397338384029
258,0.0,0.0,0.089159,0.0,0.0,0.089159,0.026781222860529957,0.01833387398219471,0.5129179352059725,-0.22561998089325358,-0.2867313115605179,0.4180356401587328,-0.3036934892307536,-0.34017882881065487,0.4205876385268015,-0.3011050574545744,-0.3478703706173969,0.33868873618021816,1.6683830386342853
259,0.0,0.0,0.089159,0.0,0.0,0.089159,0.02678122286052992,0.018333873982194757,0.5129179352059725,-0.22561998089325297,-0.2867313115605181,0.4180356401587322,-0.30369348923075284,-0.34017882881065525,0.42058763852680087,-0.3011050574545734,-0.3478703706173973,0.3386887361802176,1.5603346558910467
260,0.0,0.0,0.089159,0.0,0.0,0.089159,0.026781222860529957,0.01833387398219471,0.5129179352059725,-0.22561998089325358,-0.2867313115605179,0.4180356401587328,-0.3036934892307536,-0.34017882881065487,0.4205876385268015,-0.3011050574545743,-0.34787037061739695,0.3386887361802182,1.444378315114038
261,0.0,0.0,0.089159,0.0,0.0,0.089159,0.02678122286052992,0.018333873982194757,0.5129179352059725,-0.22561998089325297,-0.2867313115605181,0.4180356401587322,-0.30369348923075284,-0.34017882881065525,0.42058763852680087,-0.3011050574545735,-0.3478703706173973,0.3386887361802176,1.3164809078363804
262,0.0,0.0,0.089159,0.0,0.0,0.089159,0.02678122286052962,0.018333873982194434,0.5129179352059726,-0.22561998089325375,-0.286731311560518,0.4180356401587319,-0.3036934892307537,-0.340178828810655,0.42058763852680053,-0.30110505745457433,-0.3478703706173969,0.33868873618021716,1.204236688673231
263,0.0,0.0,0.089159,0.0,0.0,0.089159,0.02678122286053029,0.018333873982194927,0.5129179352059725,-0.22561998089325289,-0.28673131156051807,0.41803564015873307,-0.3036934892307526,-0.3401788288106552,0.420587638526802,-0.30110505745457344,-0.3478703706173973,0.3386887361802186,1.1243553710501506
264,0.0,0.0,0.089159,0.0,0.0,0.089159,0.02678122286052992,0.018333873982194757,0.5129179352059725,-0.22561998089325305,-0.28673131156051823,0.41803564015873274,-0.30369348923075284,-0.3401788288106554,0.4205876385268016,-0.3011050574545737,-0.34787037061739734,0.33868873618021833,1.0641974057414936
265,0.0,0.0,0.089159,0.0,0.0,0.089159,0.026781222860529957,0.01833387398219471,0.5129179352059725,-0.22561998089325358,-0.2867313115605179,0.4180356401587328,-0.3036934892307536,-0.34017882881065487,0.4205876385268015,-0.3011050574545743,-0.34787037061739695,0.3386887361802182,1.0213581149112316
266,0.0,0.0,0.089159,0.0,0.0,0.089159,0.027412858382072792,0.018785529399441624,0.5128577598288518,-0.22493067205520467,-0.28646069743338465,0.4184052921492115,-0.30297910085375196,-0.33994585541780853,0.4209357342962116,-0.3003679495241323,-0.34763091091061993,0.33903694425138725,0.9911755861515075
267,0.0,0.0,0.089159,0.0,0.0,0.089159,0.030311058834163455,0.02087520966223108,0.5125624309425347,-0.22173103374011638,-0.2852371099440971,0.4201296642631191,-0.29965720507829674,-0.3389048218270848,0.42256092356997316,-0.29694167881344485,-0.3465579666536668,0.34066253963373017,0.9652096889481351
268,0.0,0.0,0.089159,0.0,0.0,0.089159,0.034378306416716214,0.02385425991402219,0.5120941088900904,-0.2171639655193145,-0.28353704833453347,0.4225907344145912,-0.29490457118169633,-0.3374793396818948,0.42488200817440247,-0.2920421460928691,-0.3450833418933169,0.34298404926833737,0.9355740767121083
269,0.0,0.0,0.089159,0.0,0.0,0.089159,0.04157936806141855,0.02927665777755588,0.5111057187465605,-0.2088547497873108,-0.28055040325815905,0.4270597202261066,-0.28622715112300323,-0.33502947372431435,0.4291005270989524,-0.283103284764872,-0.3425339737956643,0.34720294509767696,0.9009361754586619
270,0.0,0.0,0.089159,0.0,0.0,0.089159,0.04865248055202009,0.03482486768584817,0.5099263522587018,-0.20036047893138043,-0.2776458628929121,0.43164242325092766,-0.27731184572767403,-0.3327267373631905,0.43343320960661413,-0.27392931350257466,-0.3401150019539708,0.35153533404147635,0.8631825058898864
271,0.0,0.0,0.089159,0.0,0.0,0.089159,0.05666529098579015,0.04145730862516826,0.5083192752635957,-0.1902096077429376,-0.27440378974468993,0.4371972961413361,-0.26658869495471627,-0.3302840533550217,0.4386985208198245,-0.26291067137241936,-0.3375115355519322,0.3567990358176502,0.821314898223517
272,0.0,0.0,0.089159,0.0,0.0,0.089159,0.06883710602859075,0.05248481813335924,0.5052500918286003,-0.17340618335326669,-0.2694705847064755,0.4466267830538695,-0.24866945136329255,-0.32685502702168545,0.44767022381565147,-0.24453709380756314,-0.33376418286619713,0.3657649298075848,0.7737259035331934
273,0.0,0.0,0.089159,0.0,0.0,0.089159,0.07882809898538877,0.06237797929751788,0.5020998171991576,-0.15878881788443763,-0.2648423045586904,0.45478310080483864,-0.23300966597773326,-0.3235744900544247,0.4554300901452469,-0.22850228634753583,-0.3301728682470918,0.3735189496691443,0.71770150622067
274,0.0,0.0,0.089159,0.0,0.0,0.089159,0.08975955822828748,0.07430288632890428,0.49787320673846985,-0.1416740998077338,-0.2589732117785965,0.46411984604200635,-0.21458415154880692,-0.31932809096204817,0.4643080317614328,-0.20966030028266217,-0.32553163333158597,0.3823900132869956,0.6498695061306686
275,0.0,0.0,0.089159,0.0,0.0,0.089159,0.10007396618490919,0.08793756098586175,0.4927394587190509,-0.12221871773153782,-0.2526998807196605,0.4746872847353024,-0.1933183506078211,-0.31517695188738737,0.4744039419031751,-0.18797900815935675,-0.3208816287768806,0.3924756922953353,0.5629372961939964
276,0.0,0.0,0.089159,0.0,0.0,0.089159,0.11282912679296153,0.11144459106958413,0.4834617913526241,-0.08945898678429272,-0.2417784710647804,0.49277696616466443,-0.15679488396830144,-0.30828808382008355,0.4917916430886039,-0.15090552655418277,-0.31303651625592654,0.40984008508845987,0.4369745619884774
277,0.0,0.0,0.089159,0.0,0.0,0.089159,0.11718164478762201,0.12564112864721183,0.47788482743769717,-0.06996697886807934,-0.23504818321586474,0.503426909802237,-0.13451735878507043,-0.30425853272272557,0.5020858379509588,-0.1283854755789815,-0.3083892941756013,0.42011860780276916,0.333286320621036
278,0.0,0.0,0.089159,0.0,0.0,0.089159,0.11878575530245443,0.1398223463780094,0.4725186950522751,-0.050554087936215936,-0.22809195366959972,0.5141944711383952,-0.11182588565564158,-0.3002147979107524,0.5125559831780413,-0.1055332454668757,-0.30369815683635776,0.43057086934601596,0.26034460515114244
279,0.0,0.0,0.089159,0.0,0.0,0.089159,0.11726350279222691,0.15342296020517976,0.4677559706624411,-0.03167530701217487,-0.22118622561866172,0.5248433933617263,-0.08914070035681376,-0.2963716886986494,0.5229733106914339,-0.08277324983581984,-0.29919873356725124,0.4409687169714867,0.19372187258373139
280,0.0,0.0,0.089159,0.0,0.0,0.089159,0.11128552816166443,0.16831897962916564,0.46320345232936677,-0.010131852428696825,-0.2132337165815425,0.5370217746139767,-0.062320323039543504,-0.2921685994004508,0.5349553018544155,-0.05595916695437103,-0.2942268836233185,0.4529273239485938,0.14083526017933587
281,0.0,0.0,0.089159,0.0,0.0,0.089159,0.09641934204168064,0.18634475925250835,0.45875870397630736,0.01846884190983386,-0.2018205395677452,0.5537597846068888,-0.025015708141681227,-0.28586091820935444,0.5515391620382768,-0.018844942343654143,-0.28688547781923124,0.46947722246168794,0.08868275917741421
282,0.0,0.0,0.089159,0.0,0.0,0.089159,0.08118699507889268,0.19610547158931202,0.4573658927149429,0.03779648490703923,-0.19405368569479514,0.5653792280693407,0.0016020681503628666,-0.28148053482251295,0.563113671351163,0.007525436725272956,-0.2818056359257962,0.4810277528632859,0.04291998993066861
283,0.0,0.0,0.089159,0.0,0.0,0.089159,0.06250521148648332,0.20274496994869778,0.4574151278479037,0.05675963446208449,-0.18637929686981947,0.5770941916711475,0.02888257190409208,-0.2768027044400885,0.5748360405427232,0.03445840463305733,-0.2764711589121233,0.49272580873851074,0.014521980192836752
284,0.0,0.0,0.089159,0.0,0.0,0.089159,0.04056873730514503,0.2050772130466983,0.45918942340119173,0.07583877819730506,-0.17908258941577807,0.5893856421921245,0.05747606275388484,-0.27190713265477684,0.5871412371450713,0.06259755354720402,-0.2709343389870484,0.5050065063393154,0.0018341668619989166
285,0.0,0.0,0.089159,0.0,0.0,0.089159,0.01777436812279279,0.20241837878639163,0.46243620499291715,0.09441585872838516,-0.17257864578779453,0.6012781960412313,0.08613875073625625,-0.2668401560952062,0.5990692012806337,0.09073043256421978,-0.26531800661464844,0.516911490023871,6.856400650892958e-06
286,0.0,0.0,0.089159,0.0,0.0,0.089159,-0.013647056934299396,0.18967531623372436,0.4692406126158547,0.12123957214451263,-0.16410683895196956,0.6189655903848316,0.1280301963473522,-0.25848717279977085,0.6167604813822254,0.13171978315623734,-0.25630145759759254,0.5345722851601725,6.8563972827762864e-06
287,0.0,0.0,0.089159,0.0,0.0,0.089159,-0.029037876239473008,0.17769416604487495,0.4741350837988737,0.13682212209839795,-0.16047696832298008,0.6287459819649461,0.15208263825458507,-0.2538620583871065,0.6265179558516081,0.15521110316995695,-0.2513895739182398,0.5443146132928987,6.8563972818925134e-06
288,0.0,0.0,0.089159,0.0,0.0,0.089159,-0.041705895941405335,0.1633565134496472,0.47928752722827106,0.1526991957608539,-0.1568630877614422,0.6387862805790328,0.17610610566082896,-0.2485448776225775,0.6365084577604,0.17864187263532072,-0.24585481159907946,0.5542915286603641,6.856397282050802e-06
289,0.0,0.0,0.089159,0.0,0.0,0.089159,-0.051334257958940775,0.14581622548646112,0.48504714372835966,0.16989794217553583,-0.15390407047494514,0.649357346736164,0.20131857747733223,-0.24315515970179866,0.6469889614103094,0.20320838678801634,-0.24030781061085688,0.5647599444885221,6.856397282945274e-06
290,0.0,0.0,0.089159,0.0,0.0,0.089159,-0.056150068148575455,0.13093464712066388,0.4895691497593405,0.1838859200650917,-0.15185763131970065,0.6574531472599825,0.22117755441875875,-0.23881686646786165,0.6549938933732866,0.22255389228761122,-0.23590093596088732,0.5727570826170975,6.856397282935501e-06
291,0.0,0.0,0.089159,0.0,0.0,0.089159,-0.05862181955447202,0.11787388749229608,0.4932558063714144,0.19626613388454248,-0.1495253666557882,0.6644386182209656,0.23839836417041083,-0.2342427944845773,0.6618979306737711,0.23932981537216438,-0.23131309298897368,0.5796553671935062,6.856397282189544e-06
292,0.0,0.0,0.089159,0.0,0.0,0.089159,-0.05868997754265021,0.10336450594344615,0.4971985390732502,0.20960713653095442,-0.1480984359911809,0.6720036660385585,0.2563229987509452,-0.230374187571354,0.6693671116658029,0.25679454000642055,-0.22747080174230408,0.5871196922559998,6.8563972833285265e-06
293,0.0,0.0,0.089159,0.0,0.0,0.089159,-0.05559908268325846,0.0891772174997264,0.5009613383660985,0.2219289396405211,-0.14965121376076584,0.6790426744086611,0.271983840366803,-0.22993593335825427,0.6763053011358453,0.2720635430011805,-0.22708184461841122,0.594054843234657,6.856397282199317e-06
294,0.0,0.0,0.089159,0.0,0.0,0.089159,-0.052117333513746804,0.07852183048304559,0.5035779977366008,0.23138154906547842,-0.1512316759546908,0.6841756025266302,0.2837002766368208,-0.23005693377806924,0.6813556779897683,0.2834913786945464,-0.22725307306135598,0.5991037191879804,6.856397283241531e-06
295,0.0,0.0,0.089159,0.0,0.0,0.089159,-0.05031015560655645,0.07260078409298241,0.5048788749060817,0.23723824597960982,-0.15071686135882476,0.6871394876974961,0.2911239565848149,-0.2284774007147335,0.6842669954607308,0.29072755179994664,-0.22571366627900724,0.6020143685408852,6.85639728383036e-06
296,0.0,0.0,0.089159,0.0,0.0,0.089159,-0.05119762847812494,0.0686038756977195,0.5054489363153856,0.24329455592958643,-0.14351250152724304,0.6899883110724598,0.29987658688022373,-0.21933137687527327,0.6870566878939134,0.2992252026683883,-0.21663707339447924,0.6048033814110614,6.856397282491888e-06
297,0.0,0.0,0.089159,0.0,0.0,0.089159,-0.05501202584548184,0.07055095549299616,0.5046361229458987,0.24358730630515532,-0.1348859657916726,0.6901297757005694,0.30176015793571953,-0.20949056718456613,0.6871809989752419,0.3009993705051224,-0.20683268571053987,0.6049274466595181,6.856397283840133e-06
298,0.0,0.0,0.089159,0.0,0.0,0.089159,-0.06087335042095536,0.07640421835486481,0.5027793943546663,0.2398702816563565,-0.12590617952266767,0.6882451746905032,0.2988212788461609,-0.1998975866706143,0.6852999924220405,0.2980392981922671,-0.19724655948064024,0.6030464176602409,6.856397281744385e-06
299,0.0,0.0,0.089159,0.0,0.0,0.089159,-0.06804854798577897,0.08461492419372846,0.5000540105814338,0.23380426815162475,-0.11655626642629112,0.6849561859457123,0.29309262718856655,-0.1902783390960858,0.6820289032507522,0.29234368238854297,-0.18761461232866625,0.5997754313398652,6.856397283534103e-06
300,0.0,0.0,0.089159,0.0,0.0,0.089159,-0.07749948790029418,0.0949641654348425,0.4960995812381655,0.2259670139518652,-0.10425651622087288,0.6804714534265375,0.2857830897721825,-0.17755227427449788,0.6775746578171539,0.2850863321128714,-0.17487007568884566,0.5953213275531986,6.856397281744771e-06
301,0.0,0.0,0.089159,0.0,0.0,0.089159,-0.09407088937653663,0.1088844758584139,0.4890587858075768,0.21465564559705697,-0.08149980802284178,0.6740332058072619,0.2765058147115146,-0.15308968333424894,0.6711926366019529,0.27584251663326254,-0.150399062853683,0.5889393047722398,6.856397282643316e-06
302,0.0,0.0,0.089159,0.0,0.0,0.089159,-0.10846873907155732,0.11784932650180328,0.48282264943603537,0.2055653430815947,-0.062168615314923834,0.6692359560165921,0.26963601579425006,-0.13178024432339644,0.6664444501622916,0.26897353397534995,-0.12909153844283916,0.5841910491473339,6.85639728307293e-06
303,0.0,0.0,0.089159,0.0,0.0,0.089159,-0.13094207589262552,0.12877917489498356,0.47242796153262534,0.19056199705088647,-0.03432244613283175,0.6616547495380022,0.25801692263063114,-0.1006631513322481,0.6589406477206019,0.2573543608008648,-0.09797172976052397,0.5766873361657171,6.856397282643703e-06
304,0.0,0.0,0.089159,0.0,0.0,0.089159,-0.1546202862343864,0.13386342014563268,0.4617152398238825,0.17546649276109272,-0.0075385258279517045,0.6536058154321528,0.24699771743492302,-0.06946710332637236,0.651006260530999,0.2463355578900236,-0.06677921297066415,0.5687528302671321,6.8563972818929005e-06
305,0.0,0.0,0.089159,0.0,0.0,0.089159,-0.17241615807726457,0.13314912576115756,0.4540822504827763,0.16413738445767437,0.011152821448980221,0.6480471951025545,0.239023673717714,-0.04667844016202091,0.6455549348148582,0.23836239473703205,-0.043989994528319025,0.5633015156142904,6.8563972827971455e-06
306,0.0,0.0,0.089159,0.0,0.0,0.089159,-0.2025233463225715,0.12280509601413991,0.44204453751502154,0.14426171606207247,0.04017237787970969,0.6387314445540881,0.22517192543617692,-0.008889551073132836,0.6364758633729246,0.22451009735362412,-0.006199471623097391,0.5542225020060987,6.856397280740713e-06
307,0.0,0.0,0.089159,0.0,0.0,0.089159,-0.2191484072054028,0.1104096063126829,0.43615855973057566,0.1329341041770822,0.05524625283544218,0.6330562352164671,0.2174421532818116,0.012670080144878283,0.6309870190518458,0.21678095423794594,0.015355236685572093,0.5487334917707841,6.856397281893287e-06
308,0.0,0.0,0.089159,0.0,0.0,0.089159,-0.2339713437855836,0.0932238355114142,0.43149177199197414,0.12186106165845703,0.0689405925506271,0.6278776379477888,0.20977175354511055,0.03391334628243922,0.6260270242988623,0.20911275885761738,0.03660514948337308,0.5437736965757284,6.856397281748071e-06
309,0.0,0.0,0.089159,0.0,0.0,0.089159,-0.24416024717257684,0.07573939860994279,0.42867971689196005,0.11325186549480168,0.07914981050087067,0.6236636542031535,0.20363867037330097,0.051111494183998095,0.6220202364318344,0.2029790740948933,0.053806292689407245,0.5397670116089454,6.856397280889615e-06
310,0.0,0.0,0.089159,0.0,0.0,0.089159,-0.2533043230952566,0.05151022030947697,0.42651432766642794,0.10375556028329033,0.09028493586128469,0.6182916623949481,0.1964976210602289,0.0714255499544741,0.6169292285196274,0.1958353660286785,0.07411100707648428,0.5346757195469456,6.856397282639244e-06
311,0.0,0.0,0.089159,0.0,0.0,0.089159,-0.25853277594571306,0.011819394707252975,0.4262733806937905,0.09225894922255024,0.10504618488465427,0.6107394104843524,0.18680595060207272,0.10072376068860554,0.6098429289117631,0.1861482025996855,0.10339611992585876,0.5275889571920193,6.8563972835377885e-06
312,0.0,0.0,0.089159,0.0,0.0,0.089159,-0.25701656813284707,-0.014383363096280195,0.4273314450206641,0.08552971004707519,0.11410726714843895,0.606009899917717,0.18003006001815536,0.11939576997831834,0.6054284421275736,0.1793740673562599,0.12207411343067677,0.523174651029663,6.856397283385974e-06
313,0.0,0.0,0.089159,0.0,0.0,0.089159,-0.25272832714305715,-0.03717461590242825,0.4288227169201012,0.07972492318841187,0.1220514813889649,0.6017263643234836,0.17336682253918517,0.13582556711061558,0.6014234641546768,0.172705058935541,0.13851570882559205,0.5191701043054511,6.856397281037744e-06
314,0.0,0.0,0.089159,0.0,0.0,0.089159,-0.2464458893808755,-0.05589968701340027,0.43086742629217256,0.0753021619152025,0.12900289613771507,0.59838760785613,0.16760741489186726,0.14993988464166183,0.5983149077906192,0.1669314381290718,0.15263446503957825,0.5160618088101228,6.8563972820406425e-06
315,0.0,0.0,0.089159,0.0,0.0,0.089159,-0.23858387626079233,-0.07082736896581249,0.43366766142051577,0.07237063992249915,0.13534247343841796,0.5966862798302849,0.16310674554459487,0.16227891077860918,0.5967861795492021,0.16240250656726302,0.16495621341759362,0.5145327534926415,6.8563972825267454e-06
316,0.0,0.0,0.089159,0.0,0.0,0.089159,-0.22331198578423433,-0.09044882937773034,0.4392672207965132,0.06928177998751721,0.1458247361341949,0.5952719498010766,0.15700847378854743,0.18135698369247927,0.5956022196862875,0.15625641708105373,0.18397831328744796,0.513347414101062,6.85639728172218e-06
317,0.0,0.0,0.089159,0.0,0.0,0.089159,-0.21321462485926596,-0.1009623617976731,0.4426715531665858,0.06759919134709055,0.1527785946351828,0.5927812219296671,0.15314205671030678,0.19328524247896264,0.5932833831693557,0.15239094406297027,0.19589117896526384,0.5110280798459811,6.856397281675465e-06
318,0.0,0.0,0.089159,0.0,0.0,0.089159,-0.2068481237007005,-0.1078514631339747,0.44441512678933565,0.066233267448888,0.1576302526144039,0.5883588568059731,0.15015790956756703,0.20138890648061852,0.5890349907190897,0.14944527237493002,0.20402662396532126,0.5067803580550108,6.856397282639244e-06
319,0.0,0.0,0.089159,0.0,0.0,0.089159,-0.20234565126800444,-0.1136789224521772,0.4451903750261891,0.06495967146360851,0.1616905454016242,0.5811804688318131,0.14747508179531627,0.208048166017014,0.5820752138622299,0.14683977174450222,0.2107665542112356,0.49982257410662784,6.8563972817837e-06
320,0.0,0.0,0.089159,0.0,0.0,0.089159,-0.20038494969934725,-0.11780928322861987,0.444956477111838,0.0642593571337005,0.164395091833655,0.5718338452929544,0.14584698505587962,0.21236166807954943,0.5729692013070966,0.14532516547802335,0.21519606903351196,0.4907196792686048,6.856397282491502e-06
321,0.0,0.0,0.089159,0.0,0.0,0.089159,-0.20304835533944682,-0.11949600339646425,0.4428779146288589,0.06460772718658375,0.16467130240480057,0.558562610247896,0.14617084064701316,0.2126720166640262,0.5599812198648454,0.14583502125867737,0.21567329311949757,0.47773664822041256,6.856397282823003e-06
322,0.0,0.0,0.089159,0.0,0.0,0.089159,-0.20728306900061721,-0.11908422061547158,0.4405529067572046,0.06569106621929459,0.16361987281455068,0.5470296744525596,0.14774911480213454,0.21076226032399653,0.5486711563091412,0.14758924533029877,0.21390409951314607,0.46643130411896827,6.8563972826400175e-06
323,0.0,0.0,0.089159,0.0,0.0,0.089159,-0.21112468459316552,-0.11837901248371728,0.43849805730510044,0.06715229451784663,0.1627898654761564,0.5348296199605198,0.14969384313885728,0.20907145986023185,0.5367082557722849,0.14972230542971582,0.21235870644809732,0.45447393690377,6.8563972818925134e-06
324,0.0,0.0,0.089159,0.0,0.0,0.089159,-0.21391723805896573,-0.11808965407524726,0.4368934516460977,0.06907705477881308,0.1628098171456936,0.5192554713459652,0.1519173073960297,0.208540478526484,0.5214512982952538,0.1521795896057468,0.2120135777450915,0.4392250324803685,6.8563972822859255e-06
325,0.0,0.0,0.089159,0.0,0.0,0.089159,-0.21534606689357716,-0.118588773744081,0.43584008430565135,0.07237425266770542,0.16446175543020675,0.48944232908802043,0.15524694017976076,0.21009885729510921,0.49226988950324385,0.15594003354140024,0.21393364712219584,0.41006220124615866,6.8563972832423045e-06
326,0.0,0.0,0.089159,0.0,0.0,0.089159,-0.21546966584868318,-0.1186575487722896,0.4357397398261024,0.07472727252904443,0.16575795824480208,0.46157269018807223,0.15758269036335568,0.21138582305872267,0.4649932439479589,0.1586771115890773,0.2155597123161113,0.38280643910285156,6.856397282639244e-06
327,0.0,0.0,0.089159,0.0,0.0,0.089159,-0.21482805185168963,-0.11830493504986064,0.43625819400721166,0.07610088685682294,0.16651482800483436,0.4328172355061684,0.15893514951420012,0.2121313198050921,0.4368475091749988,0.1604421600731844,0.21665386247863577,0.3546856839339474,6.856397281599942e-06
328,0.0,0.0,0.089159,0.0,0.0,0.089159,-0.21361389752071028,-0.11763674983902657,0.43723327062815454,0.07678456399390449,0.16689159565004352,0.41518470688361175,0.15960420923493657,0.2125002100908132,0.41958733688655425,0.16136315863683207,0.21723566822437843,0.33744251639696504,6.8563972830359545e-06
329,0.0,0.0,0.089159,0.0,0.0,0.089159,-0.21039933088949173,-0.11586707629249712,0.4397755172844582,0.07800859665888285,0.16756602939207518,0.39223262160855765,0.16080727943024184,0.21316332884832465,0.3971200456360966,0.16289420858355913,0.21817598656040832,0.3149993540330023,6.856397281484145e-06
330,0.0,0.0,0.089159,0.0,0.0,0.089159,-0.20704038556126775,-0.1140176718639266,0.4423717535202706,0.07921997917098228,0.16823337397151844,0.3778493875673964,0.16200439226962315,0.21382296280970792,0.3830409997908216,0.16429709442247,0.21900954642588602,0.30093659755055974,6.856397281487444e-06
331,0.0,0.0,0.089159,0.0,0.0,0.089159,-0.20421122093838995,-0.11245989312697388,0.44451171165522535,0.080158743127417,0.1687505159473146,0.36816896893869083,0.1629330504865368,0.21433464065461405,0.3735656453128443,0.165364462206579,0.2196384718454375,0.2914727247182712,6.856397281636346e-06
332,0.0,0.0,0.089159,0.0,0.0,0.089159,-0.20029858828107783,-0.1103054908639007,0.4474021774896504,0.0812792781356121,0.16936779899666177,0.35645966222426684,0.16404080496009799,0.21494500911148293,0.3621050227822227,0.16664042113998684,0.22039102632299024,0.28002656706911117,6.856397282188771e-06
